; generated by Slic3r 1.2.9 on 2017-11-09 at 14:10:02

; external perimeters extrusion width = 0.40mm
; perimeters extrusion width = 0.58mm
; infill extrusion width = 0.58mm
; solid infill extrusion width = 0.58mm
; top infill extrusion width = 0.58mm
; support material extrusion width = 0.40mm

M107
M190 S65 ; set bed temperature
M104 S190 ; set temperature
;G1 Z5 F200 ; lift nozzle
G28 X Y Z ; home X & Y axes
G29 ; auto bed leveling
G91 ; set relative coordinates
G1 Z10 F200 ; lift nozzle
G90 ; set absolute coordinates

M109 S190 ; wait for temperature to be reached
G21 ; set units to millimeters
G90 ; use absolute coordinates
M82 ; use absolute distances for extrusion
G92 E0
G1 Z0.240 F7800.000
G1 E-2.00000 F2400.00000
G92 E0
G1 X59.718 Y65.875 F7800.000
G1 E2.00000 F2400.00000
G1 X62.133 Y64.447 E2.03694 F1800.000
G1 X66.268 Y63.301 E2.09344
G1 X67.703 Y63.106 E2.11251
G1 X70.363 Y63.108 E2.14753
G1 X117.898 Y64.253 E2.77353 F1800.000
G1 X119.913 Y64.698 E2.80071
G1 X121.613 Y65.870 E2.82789
G1 X122.746 Y67.596 E2.85507
G1 X123.145 Y69.629 E2.88234
G1 X123.145 Y86.829 E3.10879
G1 X122.749 Y88.854 E3.13597
G1 X121.879 Y90.294 E3.15811
G1 X113.243 Y100.541 E3.33454
G1 X112.617 Y101.194 E3.34646
G1 X111.676 Y101.945 E3.36231
G1 X111.296 Y102.183 E3.36821
G1 X110.212 Y102.706 E3.38406
G1 X109.789 Y102.854 E3.38996
G1 X108.615 Y103.122 E3.40581
G1 X108.170 Y103.172 E3.41171
G1 X107.568 Y103.206 E3.41964
G1 X103.568 Y103.206 E3.47231
G1 X102.438 Y103.085 E3.48727
G1 X62.438 Y94.485 E4.02593
G1 X60.540 Y93.672 E4.05311
G1 X59.089 Y92.204 E4.08029
G1 X58.298 Y90.297 E4.10747
G1 X58.191 Y89.229 E4.12161
G1 X58.191 Y69.629 E4.37966
G1 X58.587 Y67.603 E4.40684
G1 X59.685 Y65.925 E4.43322
G1 X59.883 Y65.986 F7800.000
G1 X59.904 Y65.955 E4.43371 F1800.000
G1 X62.183 Y64.628 E4.46843
G1 X66.318 Y63.483 E4.52493
G1 X67.703 Y63.294 E4.54333
G1 X70.359 Y63.296 E4.57829
G1 X117.893 Y64.442 E5.20430 F1800.000
G1 X119.871 Y64.885 E5.23099
G1 X121.528 Y66.054 E5.25768
G1 X122.611 Y67.768 E5.28438
G1 X122.956 Y69.629 E5.30929
G1 X122.956 Y86.829 E5.53574
G1 X122.560 Y88.817 E5.56244
G1 X121.735 Y90.172 E5.58333
G1 X113.099 Y100.419 E5.75976
G1 X112.484 Y101.061 E5.77146
G1 X111.575 Y101.785 E5.78676
G1 X111.196 Y102.024 E5.79266
G1 X110.149 Y102.528 E5.80795
G1 X109.726 Y102.676 E5.81385
G1 X108.594 Y102.934 E5.82915
G1 X108.149 Y102.984 E5.83504
G1 X107.568 Y103.017 E5.84270
G1 X103.568 Y103.017 E5.89537
G1 X102.477 Y102.901 E5.90981
G1 X62.477 Y94.301 E6.44847
G1 X60.617 Y93.496 E6.47516
G1 X59.207 Y92.039 E6.50186
G1 X58.379 Y89.229 E6.54043
G1 X58.379 Y69.629 E6.79847
G1 X58.776 Y67.640 E6.82517
G1 X59.850 Y66.036 E6.85059
G1 E4.85059 F2400.00000
G92 E0
G1 X117.076 Y86.137 F7800.000
G1 E2.00000 F2400.00000
G1 X64.259 Y86.137 E2.69537 F1800.000
G1 X64.259 Y70.320 E2.90362
G1 X117.076 Y70.320 E3.59899
G1 X117.076 Y86.077 E3.80644
G1 X116.888 Y85.949 F7800.000
G1 X64.448 Y85.949 E4.49685 F1800.000
G1 X64.448 Y70.509 E4.70013
G1 X116.888 Y70.509 E5.39054
G1 X116.888 Y85.889 E5.59303
G1 X116.888 Y86.349 F7800.000
G1 X73.571 Y86.326 F7800.000
G1 X73.571 Y87.201 E5.60455 F1800.000
G1 X73.530 Y87.562 E5.60934
G1 X73.419 Y87.879 E5.61376
G1 X73.241 Y88.164 E5.61818
G1 X73.003 Y88.401 E5.62261
G1 X72.723 Y88.577 E5.62696
G1 X72.401 Y88.691 E5.63146
G1 X72.040 Y88.732 E5.63624
G1 X64.065 Y88.732 E5.74124
G1 X64.065 Y86.326 E5.77292
G1 X73.511 Y86.326 E5.89728
G1 X104.065 Y86.326 F7800.000
G1 X109.071 Y86.326 E5.96319 F1800.000
G1 X109.071 Y95.801 E6.08793
G1 X109.030 Y96.162 E6.09272
G1 X108.919 Y96.479 E6.09715
G1 X108.743 Y96.760 E6.10150
G1 X108.503 Y97.002 E6.10600
G1 X108.219 Y97.180 E6.11041
G1 X107.902 Y97.291 E6.11483
G1 X107.540 Y97.332 E6.11962
G1 X104.065 Y97.332 E6.16538
G1 X104.065 Y86.386 E6.30949
G1 X103.876 Y86.520 F7800.000
G1 X73.759 Y86.520 E6.70600 F1800.000
G1 X73.759 Y87.211 E6.71510
G1 X73.715 Y87.604 E6.72031
G1 X73.590 Y87.962 E6.72529
G1 X73.389 Y88.282 E6.73027
G1 X73.121 Y88.549 E6.73525
G1 X72.805 Y88.748 E6.74017
G1 X72.444 Y88.876 E6.74522
G1 X72.051 Y88.920 E6.75042
G1 X63.876 Y88.920 E6.85804
G1 X63.876 Y69.937 E7.10797
G1 X117.459 Y69.937 E7.81343
G1 X117.459 Y86.520 E8.03175
G1 X109.259 Y86.520 E8.13971
G1 X109.259 Y95.811 E8.26204
G1 X109.215 Y96.204 E8.26725
G1 X109.090 Y96.562 E8.27223
G1 X108.892 Y96.878 E8.27714
G1 X108.621 Y97.150 E8.28220
G1 X108.301 Y97.351 E8.28717
G1 X107.944 Y97.476 E8.29215
G1 X107.551 Y97.520 E8.29736
G1 X103.876 Y97.520 E8.34574
G1 X103.876 Y86.580 E8.48977
G1 X103.688 Y86.709 F7800.000
G1 X73.948 Y86.709 E8.88132 F1800.000
G1 X73.948 Y87.222 E8.88807
G1 X73.900 Y87.647 E8.89370
G1 X73.761 Y88.044 E8.89924
G1 X73.537 Y88.400 E8.90479
G1 X73.240 Y88.698 E8.91033
G1 X72.888 Y88.919 E8.91579
G1 X72.486 Y89.061 E8.92141
G1 X72.061 Y89.109 E8.92703
G1 X63.688 Y89.109 E9.03727
G1 X63.688 Y69.749 E9.29216
G1 X117.648 Y69.749 E10.00258
G1 X117.648 Y86.709 E10.22587
G1 X109.448 Y86.709 E10.33383
G1 X109.448 Y95.822 E10.45382
G1 X109.400 Y96.247 E10.45945
G1 X109.261 Y96.644 E10.46499
G1 X109.040 Y96.996 E10.47046
G1 X108.740 Y97.298 E10.47607
G1 X108.383 Y97.522 E10.48161
G1 X107.986 Y97.661 E10.48715
G1 X107.561 Y97.709 E10.49278
G1 X103.688 Y97.709 E10.54377
G1 X103.688 Y86.769 E10.68780
G1 X103.688 Y86.309 F7800.000
G1 E8.68780 F2400.00000
G92 E0
G1 X94.459 Y84.520 F7800.000
G1 E2.00000 F2400.00000
G1 X94.076 Y84.520 E2.00504 F1800.000
G1 X94.076 Y71.937 E2.17071
G1 X94.459 Y71.937 E2.17575
G1 X94.459 Y84.460 E2.34062
G1 X94.648 Y84.709 F7800.000
G1 X93.888 Y84.709 E2.35063 F1800.000
G1 X93.888 Y71.749 E2.52126
G1 X94.648 Y71.749 E2.53126
G1 X94.648 Y84.649 E2.70110
G1 X94.302 Y84.509 F7800.000
G1 X94.268 Y84.426 F7800.000
G1 X94.268 Y72.031 E3.07205 F1800.000
G1 E1.07205 F2400.00000
G92 E0
G1 X103.971 Y86.329 F7800.000
G1 E2.00000 F2400.00000
G1 X73.665 Y86.329 E2.90700 F1800.000
G1 X73.461 Y86.555 F7800.000
G1 X73.341 Y86.435 E2.90924 F1800.000
G1 X73.074 Y86.435 E2.91278
G1 X73.461 Y86.823 E2.92001
G1 X73.461 Y87.090 E2.92355
G1 X72.806 Y86.435 E2.93578
G1 X72.539 Y86.435 E2.93932
G1 X73.449 Y87.345 E2.95631
G1 X73.419 Y87.582 E2.95947
G1 X72.272 Y86.435 E2.98090
G1 X72.004 Y86.435 E2.98444
G1 X73.349 Y87.780 E3.00957
G1 X73.259 Y87.957 E3.01219
G1 X71.737 Y86.435 E3.04063
G1 X71.469 Y86.435 E3.04416
G1 X73.139 Y88.105 E3.07536
G1 X73.005 Y88.239 E3.07786
G1 X71.202 Y86.435 E3.11156
G1 X70.934 Y86.435 E3.11509
G1 X72.871 Y88.372 E3.15128
G1 X72.707 Y88.476 E3.15384
G1 X70.667 Y86.435 E3.19196
G1 X70.399 Y86.435 E3.19549
G1 X72.511 Y88.547 E3.23495
G1 X72.294 Y88.597 E3.23790
G1 X70.132 Y86.435 E3.27829
G1 X69.864 Y86.435 E3.28182
G1 X72.051 Y88.622 E3.32267
G1 X71.784 Y88.622 E3.32621
G1 X69.597 Y86.435 E3.36706
G1 X69.329 Y86.435 E3.37059
G1 X71.516 Y88.622 E3.41144
G1 X71.249 Y88.622 E3.41498
G1 X69.062 Y86.435 E3.45583
G1 X68.794 Y86.435 E3.45936
G1 X70.981 Y88.622 E3.50021
G1 X70.714 Y88.622 E3.50375
G1 X68.527 Y86.435 E3.54460
G1 X68.260 Y86.435 E3.54813
G1 X70.446 Y88.622 E3.58898
G1 X70.179 Y88.622 E3.59251
G1 X67.992 Y86.435 E3.63337
G1 X67.725 Y86.435 E3.63690
G1 X69.911 Y88.622 E3.67775
G1 X69.644 Y88.622 E3.68128
G1 X67.457 Y86.435 E3.72214
G1 X67.190 Y86.435 E3.72567
G1 X69.376 Y88.622 E3.76652
G1 X69.109 Y88.622 E3.77005
G1 X66.922 Y86.435 E3.81091
G1 X66.655 Y86.435 E3.81444
G1 X68.841 Y88.622 E3.85529
G1 X68.574 Y88.622 E3.85882
G1 X66.387 Y86.435 E3.89967
G1 X66.120 Y86.435 E3.90321
G1 X68.307 Y88.622 E3.94406
G1 X68.039 Y88.622 E3.94759
G1 X65.852 Y86.435 E3.98844
G1 X65.585 Y86.435 E3.99198
G1 X67.772 Y88.622 E4.03283
G1 X67.504 Y88.622 E4.03636
G1 X65.317 Y86.435 E4.07721
G1 X65.050 Y86.435 E4.08075
G1 X67.237 Y88.622 E4.12160
G1 X66.969 Y88.622 E4.12513
G1 X64.782 Y86.435 E4.16598
G1 X64.515 Y86.435 E4.16952
G1 X66.702 Y88.622 E4.21037
G1 X66.434 Y88.622 E4.21390
G1 X64.248 Y86.435 E4.25475
G1 X64.175 Y86.630 E4.25750
G1 X66.167 Y88.622 E4.29471
G1 X65.899 Y88.622 E4.29825
G1 X64.175 Y86.897 E4.33047
G1 X64.175 Y87.165 E4.33400
G1 X65.632 Y88.622 E4.36123
G1 X65.364 Y88.622 E4.36476
G1 X64.175 Y87.432 E4.38699
G1 X64.175 Y87.700 E4.39052
G1 X65.097 Y88.622 E4.40775
G1 X64.829 Y88.622 E4.41128
G1 X64.175 Y87.967 E4.42352
G1 X64.175 Y88.234 E4.42705
G1 X64.562 Y88.622 E4.43429
G1 X64.295 Y88.622 E4.43782
G1 X64.175 Y88.502 E4.44006
G1 X64.068 Y86.231 F7800.000
G1 X64.068 Y70.226 E4.91908 F1800.000
G1 X64.085 Y70.145 E4.92155
G1 X64.165 Y70.129 E4.92401
G1 X115.873 Y70.129 E6.47156
G1 X117.171 Y70.129 E6.51039
G1 X117.251 Y70.145 E6.51286
G1 X117.268 Y70.226 E6.51532
G1 X117.268 Y86.231 E6.99434
G1 X117.251 Y86.312 E6.99680
G1 X117.171 Y86.329 E6.99927
G1 X109.165 Y86.329 E7.23886
G1 X108.961 Y86.555 F7800.000
G1 X108.841 Y86.435 E7.24111 F1800.000
G1 X108.572 Y86.435 E7.24469
G1 X108.961 Y86.824 E7.25200
G1 X108.961 Y87.093 E7.25557
G1 X108.303 Y86.435 E7.26793
G1 X108.034 Y86.435 E7.27151
G1 X108.961 Y87.362 E7.28893
G1 X108.961 Y87.631 E7.29250
G1 X107.765 Y86.435 E7.31497
G1 X107.496 Y86.435 E7.31855
G1 X108.961 Y87.900 E7.34607
G1 X108.961 Y88.169 E7.34965
G1 X107.227 Y86.435 E7.38223
G1 X106.958 Y86.435 E7.38580
G1 X108.961 Y88.438 E7.42344
G1 X108.961 Y88.707 E7.42701
G1 X106.689 Y86.435 E7.46970
G1 X106.420 Y86.435 E7.47328
G1 X108.961 Y88.976 E7.52102
G1 X108.961 Y89.245 E7.52460
G1 X106.151 Y86.435 E7.57740
G1 X105.882 Y86.435 E7.58097
G1 X108.961 Y89.514 E7.63882
G1 X108.961 Y89.783 E7.64240
G1 X105.613 Y86.435 E7.70531
G1 X105.344 Y86.435 E7.70888
G1 X108.961 Y90.052 E7.77684
G1 X108.961 Y90.321 E7.78042
G1 X105.075 Y86.435 E7.85344
G1 X104.806 Y86.435 E7.85701
G1 X108.961 Y90.590 E7.93508
G1 X108.961 Y90.859 E7.93866
G1 X104.537 Y86.435 E8.02178
G1 X104.268 Y86.435 E8.02536
G1 X108.961 Y91.128 E8.11354
G1 X108.961 Y91.397 E8.11711
G1 X104.175 Y86.611 E8.20705
G1 X104.175 Y86.880 E8.21063
G1 X108.961 Y91.666 E8.30057
G1 X108.961 Y91.935 E8.30414
G1 X104.175 Y87.149 E8.39408
G1 X104.175 Y87.418 E8.39765
G1 X108.961 Y92.204 E8.48759
G1 X108.961 Y92.473 E8.49117
G1 X104.175 Y87.687 E8.58111
G1 X104.175 Y87.956 E8.58468
G1 X108.961 Y92.742 E8.67462
G1 X108.961 Y93.011 E8.67820
G1 X104.175 Y88.225 E8.76814
G1 X104.175 Y88.494 E8.77171
G1 X108.961 Y93.280 E8.86165
G1 X108.961 Y93.549 E8.86522
G1 X104.175 Y88.763 E8.95516
G1 X104.175 Y89.032 E8.95874
G1 X108.961 Y93.818 E9.04868
G1 X108.961 Y94.087 E9.05225
G1 X104.175 Y89.301 E9.14219
G1 X104.175 Y89.570 E9.14577
G1 X108.961 Y94.356 E9.23570
G1 X108.961 Y94.625 E9.23928
G1 X104.175 Y89.839 E9.32922
G1 X104.175 Y90.108 E9.33279
G1 X108.961 Y94.894 E9.42273
G1 X108.961 Y95.163 E9.42631
G1 X104.175 Y90.377 E9.51625
G1 X104.175 Y90.646 E9.51982
G1 X108.961 Y95.432 E9.60976
G1 X108.961 Y95.701 E9.61333
G1 X104.175 Y90.915 E9.70327
G1 X104.175 Y91.184 E9.70685
G1 X108.947 Y95.956 E9.79653
G1 X108.915 Y96.193 E9.79970
G1 X104.175 Y91.453 E9.88877
G1 X104.175 Y91.722 E9.89234
G1 X108.845 Y96.392 E9.98010
G1 X108.752 Y96.568 E9.98274
G1 X104.175 Y91.991 E10.06874
G1 X104.175 Y92.260 E10.07232
G1 X108.629 Y96.715 E10.15602
G1 X108.495 Y96.849 E10.15855
G1 X104.175 Y92.529 E10.23973
G1 X104.175 Y92.798 E10.24330
G1 X108.358 Y96.981 E10.32190
G1 X108.192 Y97.085 E10.32449
G1 X104.175 Y93.067 E10.39998
G1 X104.175 Y93.336 E10.40356
G1 X107.993 Y97.154 E10.47530
G1 X107.769 Y97.200 E10.47833
G1 X104.175 Y93.605 E10.54588
G1 X104.175 Y93.874 E10.54945
G1 X107.523 Y97.222 E10.61236
G1 X107.254 Y97.222 E10.61593
G1 X104.175 Y94.143 E10.67379
G1 X104.175 Y94.412 E10.67736
G1 X106.985 Y97.222 E10.73016
G1 X106.716 Y97.222 E10.73373
G1 X104.175 Y94.681 E10.78148
G1 X104.175 Y94.950 E10.78505
G1 X106.447 Y97.222 E10.82774
G1 X106.178 Y97.222 E10.83132
G1 X104.175 Y95.219 E10.86895
G1 X104.175 Y95.488 E10.87253
G1 X105.909 Y97.222 E10.90511
G1 X105.640 Y97.222 E10.90868
G1 X104.175 Y95.757 E10.93621
G1 X104.175 Y96.026 E10.93978
G1 X105.371 Y97.222 E10.96225
G1 X105.102 Y97.222 E10.96583
G1 X104.175 Y96.295 E10.98324
G1 X104.175 Y96.564 E10.98682
G1 X104.833 Y97.222 E10.99918
G1 X104.564 Y97.222 E11.00275
G1 X104.175 Y96.833 E11.01006
G1 X104.175 Y97.102 E11.01363
G1 X104.295 Y97.222 E11.01589
G1 Z0.240 F7800.000
G1 E9.01589 F2400.00000
G92 E0
G1 X102.884 Y93.365 F7800.000
G1 E2.00000 F2400.00000
G1 X103.013 Y93.106 E2.00381 F1800.000
G1 X102.884 Y92.524 E2.01167
G1 X103.013 Y92.265 E2.01548
G1 X102.884 Y91.682 E2.02334
G1 X103.013 Y91.424 E2.02714
G1 E0.02714 F2400.00000
G92 E0
G1 X95.541 Y85.299 F7800.000
G1 E2.00000 F2400.00000
G1 X95.829 Y84.724 E2.00847 F1800.000
G1 X95.323 Y84.893 E2.01550
G1 X95.829 Y83.882 E2.03038
G1 X95.323 Y84.051 E2.03741
G1 X95.829 Y83.041 E2.05228
G1 X95.323 Y83.210 E2.05931
G1 X95.829 Y82.200 E2.07419
G1 X95.323 Y82.369 E2.08122
G1 X95.829 Y81.358 E2.09610
G1 X95.323 Y81.527 E2.10312
G1 X95.829 Y80.517 E2.11800
G1 X95.323 Y80.686 E2.12503
G1 X95.829 Y79.676 E2.13991
G1 X95.323 Y79.845 E2.14693
G1 X95.829 Y78.834 E2.16181
G1 X95.323 Y79.003 E2.16884
G1 X95.829 Y77.993 E2.18372
G1 X95.323 Y78.162 E2.19075
G1 X95.829 Y77.152 E2.20562
G1 X95.323 Y77.320 E2.21265
G1 X95.829 Y76.310 E2.22753
G1 X95.323 Y76.479 E2.23456
G1 X95.829 Y75.469 E2.24944
G1 X95.323 Y75.638 E2.25646
G1 X95.829 Y74.627 E2.27134
G1 X95.323 Y74.796 E2.27837
G1 X95.829 Y73.786 E2.29325
G1 X95.323 Y73.955 E2.30028
G1 X95.829 Y72.945 E2.31515
G1 X95.323 Y73.114 E2.32218
G1 X95.829 Y72.103 E2.33706
G1 X95.323 Y72.272 E2.34409
G1 X95.829 Y71.262 E2.35897
G1 X95.459 Y71.158 E2.36402
G1 X95.323 Y71.431 E2.36804
G1 E0.36804 F2400.00000
G92 E0
G1 X92.593 Y71.830 F7800.000
G1 E2.00000 F2400.00000
G1 X92.929 Y71.158 E2.00989 F1800.000
G1 X93.213 Y71.433 E2.01510
G1 X92.593 Y72.671 E2.03334
G1 X93.213 Y72.274 E2.04304
G1 X92.592 Y73.513 E2.06128
G1 X93.213 Y73.115 E2.07099
G1 X92.592 Y74.354 E2.08923
G1 X93.213 Y73.957 E2.09893
G1 X92.592 Y75.196 E2.11718
G1 X93.213 Y74.798 E2.12689
G1 X92.592 Y76.037 E2.14513
G1 X93.213 Y75.639 E2.15484
G1 X92.592 Y76.878 E2.17308
G1 X93.213 Y76.481 E2.18279
G1 X92.592 Y77.720 E2.20104
G1 X93.213 Y77.322 E2.21075
G1 X92.592 Y78.561 E2.22900
G1 X93.213 Y78.164 E2.23871
G1 X92.592 Y79.403 E2.25696
G1 X93.213 Y79.005 E2.26667
G1 X92.592 Y80.244 E2.28492
G1 X93.213 Y79.846 E2.29463
G1 X92.592 Y81.086 E2.31289
G1 X93.213 Y80.688 E2.32260
G1 X92.592 Y81.927 E2.34085
G1 X93.213 Y81.529 E2.35057
G1 X92.592 Y82.769 E2.36882
G1 X93.213 Y82.370 E2.37854
G1 X92.592 Y83.610 E2.39680
G1 X93.213 Y83.212 E2.40651
G1 X92.592 Y84.451 E2.42477
G1 X93.213 Y84.053 E2.43449
G1 X92.592 Y85.293 E2.45275
G1 X93.213 Y84.894 E2.46246
G1 X93.011 Y85.299 E2.46842
G1 E0.46842 F2400.00000
G92 E0
G1 X70.239 Y85.299 F7800.000
G1 E2.00000 F2400.00000
G1 X70.548 Y84.683 E2.00907 F1800.000
G1 X70.126 Y84.683 E2.01462
G1 X69.817 Y85.299 E2.02370
G1 X69.396 Y85.299 E2.02925
G1 X69.705 Y84.683 E2.03832
G1 X69.283 Y84.683 E2.04387
G1 X68.974 Y85.299 E2.05295
G1 X68.552 Y85.299 E2.05850
G1 X68.861 Y84.683 E2.06757
G1 X68.439 Y84.683 E2.07312
G1 X68.131 Y85.299 E2.08220
G1 X67.709 Y85.299 E2.08775
G1 X68.018 Y84.683 E2.09682
G1 X67.596 Y84.683 E2.10237
G1 X67.325 Y85.223 E2.11033
G1 E0.11033 F2400.00000
G92 E0
G1 X67.331 Y71.750 F7800.000
G1 E2.00000 F2400.00000
G1 X67.628 Y71.158 E2.00871 F1800.000
G1 X68.050 Y71.158 E2.01427
G1 X67.741 Y71.774 E2.02334
G1 X68.162 Y71.774 E2.02889
G1 X68.471 Y71.158 E2.03796
G1 X68.893 Y71.158 E2.04352
G1 X68.584 Y71.774 E2.05259
G1 X69.006 Y71.774 E2.05814
G1 X69.315 Y71.158 E2.06721
G1 X69.736 Y71.158 E2.07276
G1 X69.427 Y71.774 E2.08184
G1 X69.849 Y71.774 E2.08739
G1 X70.158 Y71.158 E2.09646
G1 X70.574 Y71.170 E2.10194
G1 X70.271 Y71.774 E2.11084
G1 E0.11084 F2400.00000
G92 E0
G1 X70.347 Y69.099 F7800.000
G1 E2.00000 F2400.00000
G1 X70.611 Y68.572 E2.00776 F1800.000
G1 X70.234 Y68.483 E2.01286
G1 X69.925 Y69.099 E2.02193
G1 X69.503 Y69.099 E2.02748
G1 X69.812 Y68.483 E2.03656
G1 X69.390 Y68.483 E2.04211
G1 X69.081 Y69.099 E2.05118
G1 X68.660 Y69.099 E2.05673
G1 X68.969 Y68.483 E2.06580
G1 X68.547 Y68.483 E2.07136
G1 X68.238 Y69.099 E2.08043
G1 X67.816 Y69.099 E2.08598
G1 X68.125 Y68.483 E2.09505
G1 X67.703 Y68.483 E2.10061
G1 X67.395 Y69.099 E2.10968
