; generated by Slic3r 1.2.9 on 2017-11-09 at 11:58:20

; external perimeters extrusion width = 0.40mm
; perimeters extrusion width = 0.58mm
; infill extrusion width = 0.58mm
; solid infill extrusion width = 0.58mm
; top infill extrusion width = 0.58mm
; support material extrusion width = 0.40mm

M107
M190 S65 ; set bed temperature
M104 S190 ; set temperature
;G1 Z5 F200 ; lift nozzle
G28 X Y Z ; home X & Y axes
G29 ; auto bed leveling
G91 ; set relative coordinates
G1 Z10 F200 ; lift nozzle
G90 ; set absolute coordinates

M109 S190 ; wait for temperature to be reached
G21 ; set units to millimeters
G90 ; use absolute coordinates
M82 ; use absolute distances for extrusion
G92 E0
G1 Z0.240 F7800.000
G1 E-2.00000 F2400.00000
G92 E0
G1 X55.724 Y90.871 F7800.000
G1 E2.00000 F2400.00000
G1 X57.257 Y90.161 E2.02223 F1800.000
G1 X58.393 Y89.782 E2.03801
G1 X87.486 Y83.571 E2.42967
G1 X88.609 Y83.453 E2.44453
G1 X94.609 Y83.453 E2.52352
G1 X95.519 Y83.530 E2.53555
G1 X131.692 Y89.741 E3.01876 F1800.000
G1 X133.462 Y90.379 E3.04353
G1 X134.696 Y91.089 E3.06227
G1 X136.255 Y92.442 E3.08945
G1 X137.189 Y94.283 E3.11663
G1 X137.393 Y95.750 E3.13613
G1 X137.393 Y104.250 E3.24804
G1 X136.997 Y106.276 E3.27522
G1 X135.866 Y108.003 E3.30240
G1 X134.234 Y109.148 E3.32865
G1 X132.667 Y109.858 E3.35129
G1 X130.449 Y110.336 E3.38117
G1 X83.641 Y110.336 E3.99743
G1 X57.835 Y109.625 E4.33731
G1 X55.821 Y109.173 E4.36449
G1 X54.126 Y107.995 E4.39167
G1 X52.999 Y106.265 E4.41885
G1 X52.607 Y104.250 E4.44588
G1 X52.607 Y95.750 E4.55778
G1 X53.003 Y93.724 E4.58496
G1 X54.134 Y91.997 E4.61214
G1 X55.675 Y90.905 E4.63701
G1 X55.804 Y91.042 F7800.000
G1 X57.336 Y90.332 E4.65924 F1800.000
G1 X58.433 Y89.966 E4.67446
G1 X87.526 Y83.755 E5.06613
G1 X88.609 Y83.641 E5.08047
G1 X94.609 Y83.641 E5.15946
G1 X95.487 Y83.716 E5.17106
G1 X131.660 Y89.927 E5.65427 F1800.000
G1 X133.368 Y90.542 E5.67818
G1 X134.602 Y91.252 E5.69692
G1 X136.128 Y92.586 E5.72361
G1 X137.027 Y94.404 E5.75031
G1 X137.204 Y95.750 E5.76818
G1 X137.204 Y104.250 E5.88009
G1 X136.808 Y106.238 E5.90678
G1 X135.680 Y107.923 E5.93348
G1 X134.156 Y108.977 E5.95787
G1 X132.589 Y109.686 E5.98051
G1 X130.449 Y110.148 E6.00934
G1 X83.641 Y110.148 E6.62560
G1 X57.841 Y109.437 E6.96541
G1 X55.864 Y108.986 E6.99211
G1 X54.211 Y107.811 E7.01880
G1 X53.134 Y106.094 E7.04549
G1 X52.796 Y104.250 E7.07017
G1 X52.796 Y95.750 E7.18208
G1 X53.192 Y93.762 E7.20877
G1 X54.320 Y92.077 E7.23547
G1 X55.754 Y91.076 E7.25850
G1 E5.25850 F2400.00000
G92 E0
G1 X94.112 Y96.247 F7800.000
G1 E2.00000 F2400.00000
G1 X131.519 Y96.247 E2.49249 F1800.000
G1 X131.519 Y103.753 E2.59131
G1 X101.536 Y103.753 E2.98606
G1 X101.396 Y103.303 E2.99226
G1 X101.035 Y102.514 E3.00369
G1 X100.577 Y101.776 E3.01513
G1 X100.029 Y101.102 E3.02656
G1 X99.400 Y100.503 E3.03799
G1 X98.701 Y99.988 E3.04942
G1 X97.942 Y99.566 E3.06086
G1 X97.159 Y99.253 E3.07196
G1 X96.296 Y99.026 E3.08371
G1 X95.434 Y98.916 E3.09515
G1 X94.566 Y98.916 E3.10658
G1 X93.704 Y99.026 E3.11801
G1 X92.864 Y99.244 E3.12945
G1 X92.058 Y99.566 E3.14088
G1 X91.299 Y99.988 E3.15231
G1 X90.620 Y100.488 E3.16341
G1 X89.971 Y101.101 E3.17516
G1 X89.423 Y101.776 E3.18661
G1 X88.965 Y102.514 E3.19804
G1 X88.604 Y103.303 E3.20947
G1 X88.464 Y103.753 E3.21567
G1 X58.481 Y103.753 E3.61042
G1 X58.481 Y96.247 E3.70924
G1 X89.106 Y96.247 E4.11244
G1 X89.106 Y89.327 E4.20355
G1 X94.112 Y89.327 E4.26946
G1 X94.112 Y96.187 E4.35978
G1 X94.300 Y96.058 F7800.000
G1 X131.708 Y96.058 E4.85227 F1800.000
G1 X131.708 Y103.942 E4.95606
G1 X101.397 Y103.942 E5.35512
G1 X101.220 Y103.371 E5.36299
G1 X100.868 Y102.603 E5.37410
G1 X100.423 Y101.885 E5.38522
G1 X99.890 Y101.230 E5.39634
G1 X99.279 Y100.648 E5.40745
G1 X98.599 Y100.147 E5.41857
G1 X97.861 Y99.737 E5.42969
G1 X97.100 Y99.432 E5.44048
G1 X96.260 Y99.211 E5.45191
G1 X95.422 Y99.104 E5.46304
G1 X94.578 Y99.104 E5.47415
G1 X93.740 Y99.211 E5.48527
G1 X92.923 Y99.423 E5.49639
G1 X92.139 Y99.737 E5.50750
G1 X91.401 Y100.147 E5.51862
G1 X90.741 Y100.633 E5.52941
G1 X90.110 Y101.230 E5.54085
G1 X89.577 Y101.885 E5.55197
G1 X89.132 Y102.603 E5.56309
G1 X88.780 Y103.371 E5.57420
G1 X88.603 Y103.942 E5.58207
G1 X58.292 Y103.942 E5.98113
G1 X58.292 Y96.058 E6.08491
G1 X88.917 Y96.058 E6.48811
G1 X88.917 Y89.138 E6.57923
G1 X94.300 Y89.138 E6.65010
G1 X94.300 Y95.998 E6.74042
G1 X94.489 Y95.870 F7800.000
G1 X131.896 Y95.870 E7.23291 F1800.000
G1 X131.896 Y104.130 E7.34166
G1 X101.259 Y104.130 E7.74502
G1 X101.043 Y103.438 E7.75456
G1 X100.702 Y102.692 E7.76536
G1 X100.269 Y101.995 E7.77617
G1 X99.752 Y101.358 E7.78697
G1 X99.158 Y100.792 E7.79777
G1 X98.497 Y100.306 E7.80857
G1 X97.780 Y99.907 E7.81937
G1 X97.041 Y99.612 E7.82985
G1 X96.224 Y99.397 E7.84097
G1 X95.410 Y99.293 E7.85177
G1 X94.590 Y99.293 E7.86258
G1 X93.776 Y99.397 E7.87338
G1 X92.982 Y99.603 E7.88418
G1 X92.220 Y99.907 E7.89498
G1 X91.503 Y100.306 E7.90578
G1 X90.862 Y100.778 E7.91626
G1 X90.248 Y101.358 E7.92738
G1 X89.731 Y101.995 E7.93819
G1 X89.298 Y102.692 E7.94899
G1 X88.957 Y103.438 E7.95979
G1 X88.741 Y104.130 E7.96933
G1 X58.104 Y104.130 E8.37269
G1 X58.104 Y95.870 E8.48144
G1 X88.729 Y95.870 E8.88464
G1 X88.729 Y88.950 E8.97575
G1 X94.489 Y88.950 E9.05159
G1 X94.489 Y95.810 E9.14191
G1 X94.489 Y96.270 F7800.000
G1 X97.214 Y99.142 F7800.000
G1 X94.428 Y96.357 E9.19388 F1800.000
G1 X94.161 Y96.357 E9.19740
G1 X96.851 Y99.047 E9.24758
G1 X96.489 Y98.951 E9.25253
G1 X89.216 Y91.678 E9.38822
G1 X89.216 Y91.945 E9.39174
G1 X96.163 Y98.893 E9.52136
G1 X95.857 Y98.854 E9.52543
G1 X89.216 Y92.212 E9.64934
G1 X89.216 Y92.479 E9.65286
G1 X95.551 Y98.815 E9.77106
G1 X95.275 Y98.806 E9.77469
G1 X89.216 Y92.747 E9.88774
G1 X89.216 Y93.014 E9.89127
G1 X95.008 Y98.806 E9.99934
G1 X94.741 Y98.806 E10.00286
G1 X89.216 Y93.281 E10.10594
G1 X89.216 Y93.548 E10.10947
G1 X94.488 Y98.820 E10.20783
G1 X94.251 Y98.850 E10.21098
G1 X89.216 Y93.815 E10.30492
G1 X89.216 Y94.082 E10.30844
G1 X94.014 Y98.880 E10.39796
G1 X93.777 Y98.911 E10.40111
G1 X89.216 Y94.349 E10.48621
G1 X89.216 Y94.616 E10.48973
G1 X93.559 Y98.959 E10.57076
G1 X93.346 Y99.014 E10.57365
G1 X89.216 Y94.883 E10.65072
G1 X89.216 Y95.151 E10.65424
G1 X93.134 Y99.069 E10.72735
G1 X92.922 Y99.124 E10.73024
G1 X89.216 Y95.418 E10.79940
G1 X89.216 Y95.685 E10.80292
G1 X92.725 Y99.194 E10.86839
G1 X92.534 Y99.270 E10.87110
G1 X89.216 Y95.952 E10.93301
G1 X89.216 Y96.219 E10.93654
G1 X92.343 Y99.347 E10.99489
G1 X92.153 Y99.423 E10.99760
G1 X89.086 Y96.357 E11.05481
G1 X88.819 Y96.357 E11.05834
G1 X91.969 Y99.507 E11.11711
G1 X91.797 Y99.602 E11.11970
G1 X88.552 Y96.357 E11.18025
G1 X88.285 Y96.357 E11.18377
G1 X91.626 Y99.698 E11.24610
G1 X91.454 Y99.793 E11.24869
G1 X88.018 Y96.357 E11.31281
G1 X87.751 Y96.357 E11.31633
G1 X91.282 Y99.889 E11.38222
G1 X91.126 Y99.999 E11.38475
G1 X87.483 Y96.357 E11.45271
G1 X87.216 Y96.357 E11.45623
G1 X90.972 Y100.112 E11.52630
G1 X90.818 Y100.226 E11.52882
G1 X86.949 Y96.357 E11.60101
G1 X86.682 Y96.357 E11.60453
G1 X90.664 Y100.339 E11.67883
G1 X90.516 Y100.458 E11.68133
G1 X86.415 Y96.357 E11.75785
G1 X86.148 Y96.357 E11.76137
G1 X90.379 Y100.588 E11.84031
G1 X90.242 Y100.718 E11.84280
G1 X85.881 Y96.357 E11.92416
G1 X85.614 Y96.357 E11.92769
G1 X90.104 Y100.847 E12.01147
G1 X89.967 Y100.977 E12.01396
G1 X85.347 Y96.357 E12.10017
G1 X85.079 Y96.357 E12.10369
G1 X89.839 Y101.116 E12.19249
G1 X89.719 Y101.264 E12.19500
G1 X84.812 Y96.357 E12.28654
G1 X84.545 Y96.357 E12.29007
G1 X89.599 Y101.411 E12.38436
G1 X89.480 Y101.558 E12.38687
G1 X84.278 Y96.357 E12.48391
G1 X84.011 Y96.357 E12.48744
G1 X89.360 Y101.706 E12.58723
G1 X89.255 Y101.868 E12.58978
G1 X83.744 Y96.357 E12.69259
G1 X83.477 Y96.357 E12.69612
G1 X89.153 Y102.032 E12.80201
G1 X89.050 Y102.197 E12.80457
G1 X83.210 Y96.357 E12.91353
G1 X82.943 Y96.357 E12.91705
G1 X88.948 Y102.362 E13.02909
G1 X88.851 Y102.532 E13.03167
G1 X82.675 Y96.357 E13.14688
G1 X82.408 Y96.357 E13.15040
G1 X88.767 Y102.715 E13.26903
G1 X88.683 Y102.898 E13.27169
G1 X82.141 Y96.357 E13.39373
G1 X81.874 Y96.357 E13.39726
G1 X88.599 Y103.082 E13.52272
G1 X88.515 Y103.265 E13.52538
G1 X81.607 Y96.357 E13.65427
G1 X81.340 Y96.357 E13.65779
G1 X88.449 Y103.466 E13.79043
G1 X88.360 Y103.643 E13.79305
G1 X81.073 Y96.357 E13.92899
G1 X80.806 Y96.357 E13.93252
G1 X88.092 Y103.643 E14.06846
G1 X87.825 Y103.643 E14.07199
G1 X80.539 Y96.357 E14.20793
G1 X80.271 Y96.357 E14.21146
G1 X87.558 Y103.643 E14.34740
G1 X87.291 Y103.643 E14.35093
G1 X80.004 Y96.357 E14.48687
G1 X79.737 Y96.357 E14.49040
G1 X87.024 Y103.643 E14.62634
G1 X86.757 Y103.643 E14.62987
G1 X79.470 Y96.357 E14.76581
G1 X79.203 Y96.357 E14.76934
G1 X86.490 Y103.643 E14.90528
G1 X86.223 Y103.643 E14.90881
G1 X78.936 Y96.357 E15.04475
G1 X78.669 Y96.357 E15.04828
G1 X85.956 Y103.643 E15.18422
G1 X85.688 Y103.643 E15.18775
G1 X78.402 Y96.357 E15.32369
G1 X78.135 Y96.357 E15.32721
G1 X85.421 Y103.643 E15.46316
G1 X85.154 Y103.643 E15.46668
G1 X77.867 Y96.357 E15.60263
G1 X77.600 Y96.357 E15.60615
G1 X84.887 Y103.643 E15.74210
G1 X84.620 Y103.643 E15.74562
G1 X77.333 Y96.357 E15.88157
G1 X77.066 Y96.357 E15.88509
G1 X84.353 Y103.643 E16.02104
G1 X84.086 Y103.643 E16.02456
G1 X76.799 Y96.357 E16.16051
G1 X76.532 Y96.357 E16.16403
G1 X83.819 Y103.643 E16.29998
G1 X83.552 Y103.643 E16.30350
G1 X76.265 Y96.357 E16.43945
G1 X75.998 Y96.357 E16.44297
G1 X83.284 Y103.643 E16.57892
G1 X83.017 Y103.643 E16.58244
G1 X75.731 Y96.357 E16.71839
G1 X75.463 Y96.357 E16.72191
G1 X82.750 Y103.643 E16.85786
G1 X82.483 Y103.643 E16.86138
G1 X75.196 Y96.357 E16.99733
G1 X74.929 Y96.357 E17.00085
G1 X82.216 Y103.643 E17.13680
G1 X81.949 Y103.643 E17.14032
G1 X74.662 Y96.357 E17.27627
G1 X74.395 Y96.357 E17.27979
G1 X81.682 Y103.643 E17.41574
G1 X81.415 Y103.643 E17.41926
G1 X74.128 Y96.357 E17.55521
G1 X73.861 Y96.357 E17.55873
G1 X81.148 Y103.643 E17.69468
G1 X80.880 Y103.643 E17.69820
G1 X73.594 Y96.357 E17.83415
G1 X73.327 Y96.357 E17.83767
G1 X80.613 Y103.643 E17.97361
G1 X80.346 Y103.643 E17.97714
G1 X73.060 Y96.357 E18.11308
G1 X72.792 Y96.357 E18.11661
G1 X80.079 Y103.643 E18.25255
G1 X79.812 Y103.643 E18.25608
G1 X72.525 Y96.357 E18.39202
G1 X72.258 Y96.357 E18.39555
G1 X79.545 Y103.643 E18.53149
G1 X79.278 Y103.643 E18.53502
G1 X71.991 Y96.357 E18.67096
G1 X71.724 Y96.357 E18.67449
G1 X79.011 Y103.643 E18.81043
G1 X78.744 Y103.643 E18.81396
G1 X71.457 Y96.357 E18.94990
G1 X71.190 Y96.357 E18.95343
G1 X78.476 Y103.643 E19.08937
G1 X78.209 Y103.643 E19.09290
G1 X70.923 Y96.357 E19.22884
G1 X70.656 Y96.357 E19.23237
G1 X77.942 Y103.643 E19.36831
G1 X77.675 Y103.643 E19.37184
G1 X70.388 Y96.357 E19.50778
G1 X70.121 Y96.357 E19.51130
G1 X77.408 Y103.643 E19.64725
G1 X77.141 Y103.643 E19.65077
G1 X69.854 Y96.357 E19.78672
G1 X69.587 Y96.357 E19.79024
G1 X76.874 Y103.643 E19.92619
G1 X76.607 Y103.643 E19.92971
G1 X69.320 Y96.357 E20.06566
G1 X69.053 Y96.357 E20.06918
G1 X76.340 Y103.643 E20.20513
G1 X76.072 Y103.643 E20.20865
G1 X68.786 Y96.357 E20.34460
G1 X68.519 Y96.357 E20.34812
G1 X75.805 Y103.643 E20.48407
G1 X75.538 Y103.643 E20.48759
G1 X68.252 Y96.357 E20.62354
G1 X67.984 Y96.357 E20.62706
G1 X75.271 Y103.643 E20.76301
G1 X75.004 Y103.643 E20.76653
G1 X67.717 Y96.357 E20.90248
G1 X67.450 Y96.357 E20.90600
G1 X74.737 Y103.643 E21.04195
G1 X74.470 Y103.643 E21.04547
G1 X67.183 Y96.357 E21.18142
G1 X66.916 Y96.357 E21.18494
G1 X74.203 Y103.643 E21.32089
G1 X73.936 Y103.643 E21.32441
G1 X66.649 Y96.357 E21.46036
G1 X66.382 Y96.357 E21.46388
G1 X73.668 Y103.643 E21.59983
G1 X73.401 Y103.643 E21.60335
G1 X66.115 Y96.357 E21.73930
G1 X65.848 Y96.357 E21.74282
G1 X73.134 Y103.643 E21.87877
G1 X72.867 Y103.643 E21.88229
G1 X65.580 Y96.357 E22.01823
G1 X65.313 Y96.357 E22.02176
G1 X72.600 Y103.643 E22.15770
G1 X72.333 Y103.643 E22.16123
G1 X65.046 Y96.357 E22.29717
G1 X64.779 Y96.357 E22.30070
G1 X72.066 Y103.643 E22.43664
G1 X71.799 Y103.643 E22.44017
G1 X64.512 Y96.357 E22.57611
G1 X64.245 Y96.357 E22.57964
G1 X71.532 Y103.643 E22.71558
G1 X71.265 Y103.643 E22.71911
G1 X63.978 Y96.357 E22.85505
G1 X63.711 Y96.357 E22.85858
G1 X70.997 Y103.643 E22.99452
G1 X70.730 Y103.643 E22.99805
G1 X63.444 Y96.357 E23.13399
G1 X63.176 Y96.357 E23.13752
G1 X70.463 Y103.643 E23.27346
G1 X70.196 Y103.643 E23.27699
G1 X62.909 Y96.357 E23.41293
G1 X62.642 Y96.357 E23.41646
G1 X69.929 Y103.643 E23.55240
G1 X69.662 Y103.643 E23.55592
G1 X62.375 Y96.357 E23.69187
G1 X62.108 Y96.357 E23.69539
G1 X69.395 Y103.643 E23.83134
G1 X69.128 Y103.643 E23.83486
G1 X61.841 Y96.357 E23.97081
G1 X61.574 Y96.357 E23.97433
G1 X68.861 Y103.643 E24.11028
G1 X68.593 Y103.643 E24.11380
G1 X61.307 Y96.357 E24.24975
G1 X61.040 Y96.357 E24.25327
G1 X68.326 Y103.643 E24.38922
G1 X68.059 Y103.643 E24.39274
G1 X60.772 Y96.357 E24.52869
G1 X60.505 Y96.357 E24.53221
G1 X67.792 Y103.643 E24.66816
G1 X67.525 Y103.643 E24.67168
G1 X60.238 Y96.357 E24.80763
G1 X59.971 Y96.357 E24.81115
G1 X67.258 Y103.643 E24.94710
G1 X66.991 Y103.643 E24.95062
G1 X59.704 Y96.357 E25.08657
G1 X59.437 Y96.357 E25.09009
G1 X66.724 Y103.643 E25.22604
G1 X66.457 Y103.643 E25.22956
G1 X59.170 Y96.357 E25.36551
G1 X58.903 Y96.357 E25.36903
G1 X66.189 Y103.643 E25.50498
G1 X65.922 Y103.643 E25.50850
G1 X58.636 Y96.357 E25.64445
G1 X58.591 Y96.579 E25.64744
G1 X65.655 Y103.643 E25.77924
G1 X65.388 Y103.643 E25.78276
G1 X58.591 Y96.846 E25.90958
G1 X58.591 Y97.113 E25.91310
G1 X65.121 Y103.643 E26.03494
G1 X64.854 Y103.643 E26.03846
G1 X58.591 Y97.380 E26.15531
G1 X58.591 Y97.647 E26.15884
G1 X64.587 Y103.643 E26.27070
G1 X64.320 Y103.643 E26.27423
G1 X58.591 Y97.914 E26.38111
G1 X58.591 Y98.181 E26.38464
G1 X64.053 Y103.643 E26.48654
G1 X63.785 Y103.643 E26.49006
G1 X58.591 Y98.449 E26.58698
G1 X58.591 Y98.716 E26.59050
G1 X63.518 Y103.643 E26.68244
G1 X63.251 Y103.643 E26.68596
G1 X58.591 Y98.983 E26.77291
G1 X58.591 Y99.250 E26.77643
G1 X62.984 Y103.643 E26.85840
G1 X62.717 Y103.643 E26.86193
G1 X58.591 Y99.517 E26.93891
G1 X58.591 Y99.784 E26.94243
G1 X62.450 Y103.643 E27.01443
G1 X62.183 Y103.643 E27.01796
G1 X58.591 Y100.051 E27.08498
G1 X58.591 Y100.318 E27.08850
G1 X61.916 Y103.643 E27.15053
G1 X61.649 Y103.643 E27.15406
G1 X58.591 Y100.585 E27.21111
G1 X58.591 Y100.853 E27.21463
G1 X61.381 Y103.643 E27.26670
G1 X61.114 Y103.643 E27.27022
G1 X58.591 Y101.120 E27.31731
G1 X58.591 Y101.387 E27.32083
G1 X60.847 Y103.643 E27.36293
G1 X60.580 Y103.643 E27.36646
G1 X58.591 Y101.654 E27.40357
G1 X58.591 Y101.921 E27.40710
G1 X60.313 Y103.643 E27.43923
G1 X60.046 Y103.643 E27.44275
G1 X58.591 Y102.188 E27.46991
G1 X58.591 Y102.455 E27.47343
G1 X59.779 Y103.643 E27.49560
G1 X59.512 Y103.643 E27.49912
G1 X58.591 Y102.722 E27.51630
G1 X58.591 Y102.989 E27.51983
G1 X59.245 Y103.643 E27.53203
G1 X58.977 Y103.643 E27.53555
G1 X58.591 Y103.257 E27.54277
G1 E25.54277 F2400.00000
G92 E0
G1 X89.216 Y91.411 F7800.000
G1 E2.00000 F2400.00000
G1 X94.002 Y96.198 E2.08930 F1800.000
G1 X94.002 Y95.931 E2.09283
G1 X89.216 Y91.144 E2.18213
G1 X89.216 Y90.877 E2.18566
G1 X94.002 Y95.664 E2.27496
G1 X94.002 Y95.396 E2.27848
G1 X89.216 Y90.610 E2.36779
G1 X89.216 Y90.343 E2.37131
G1 X94.002 Y95.129 E2.46062
G1 X94.002 Y94.862 E2.46414
G1 X89.216 Y90.076 E2.55345
G1 X89.216 Y89.808 E2.55697
G1 X94.002 Y94.595 E2.64627
G1 X94.002 Y94.328 E2.64980
G1 X89.216 Y89.541 E2.73910
G1 X89.378 Y89.436 E2.74165
G1 X94.002 Y94.061 E2.82793
G1 X94.002 Y93.794 E2.83145
G1 X89.645 Y89.436 E2.91275
G1 X89.912 Y89.436 E2.91628
G1 X94.002 Y93.527 E2.99259
G1 X94.002 Y93.260 E2.99612
G1 X90.179 Y89.436 E3.06745
G1 X90.446 Y89.436 E3.07097
G1 X94.002 Y92.992 E3.13732
G1 X94.002 Y92.725 E3.14084
G1 X90.713 Y89.436 E3.20221
G1 X90.980 Y89.436 E3.20573
G1 X94.002 Y92.458 E3.26211
G1 X94.002 Y92.191 E3.26564
G1 X91.247 Y89.436 E3.31704
G1 X91.514 Y89.436 E3.32056
G1 X94.002 Y91.924 E3.36697
G1 X94.002 Y91.657 E3.37050
G1 X91.782 Y89.436 E3.41193
G1 X92.049 Y89.436 E3.41545
G1 X94.002 Y91.390 E3.45190
G1 X94.002 Y91.123 E3.45543
G1 X92.316 Y89.436 E3.48689
G1 X92.583 Y89.436 E3.49041
G1 X94.002 Y90.856 E3.51690
