; generated by Slic3r 1.2.9 on 2017-11-09 at 17:55:58

; external perimeters extrusion width = 0.40mm
; perimeters extrusion width = 0.58mm
; infill extrusion width = 0.58mm
; solid infill extrusion width = 0.58mm
; top infill extrusion width = 0.58mm

M107
M190 S65 ; set bed temperature
M104 S190 ; set temperature
;G1 Z5 F200 ; lift nozzle
G28 X Y Z ; home X & Y axes
G29 ; auto bed leveling
G91 ; set relative coordinates
G1 Z10 F200 ; lift nozzle
G90 ; set absolute coordinates

M109 S190 ; wait for temperature to be reached
G21 ; set units to millimeters
G90 ; use absolute coordinates
M82 ; use absolute distances for extrusion
G92 E0
G1 Z0.240 F7800.000
G1 E-2.00000 F2400.00000
G92 E0
G1 X73.650 Y78.747 F7800.000
G1 E2.00000 F2400.00000
G1 X75.348 Y77.573 E2.02718 F1800.000
G1 X77.500 Y77.123 E2.05613
G1 X112.500 Y77.123 E2.51693
G1 X114.526 Y77.519 E2.54411
G1 X116.253 Y78.650 E2.57128 F1800.000
G1 X117.427 Y80.348 E2.59846
G1 X117.877 Y82.500 E2.62741
G1 X117.877 Y107.500 E2.95655
G1 X117.481 Y109.526 E2.98373
G1 X116.350 Y111.253 E3.01091
G1 X114.652 Y112.427 E3.03809
G1 X112.500 Y112.877 E3.06704
G1 X77.500 Y112.877 E3.52784
G1 X75.474 Y112.481 E3.55502
G1 X73.747 Y111.350 E3.58220
G1 X72.573 Y109.652 E3.60938
G1 X72.123 Y107.500 E3.63832
G1 X72.123 Y82.500 E3.96747
G1 X72.519 Y80.474 E3.99465
G1 X73.617 Y78.797 E4.02104
G1 X73.815 Y78.857 F7800.000
G1 X73.836 Y78.827 E4.02152 F1800.000
G1 X75.523 Y77.703 E4.04821
G1 X77.500 Y77.312 E4.07475
G1 X112.500 Y77.312 E4.53555
G1 X114.488 Y77.708 E4.56224
G1 X116.173 Y78.836 E4.58893 F1800.000
G1 X117.297 Y80.523 E4.61563
G1 X117.688 Y82.500 E4.64216
G1 X117.688 Y107.500 E4.97130
G1 X117.292 Y109.488 E4.99800
G1 X116.164 Y111.173 E5.02469
G1 X114.477 Y112.297 E5.05138
G1 X112.500 Y112.688 E5.07792
G1 X77.500 Y112.688 E5.53872
G1 X75.512 Y112.292 E5.56541
G1 X73.827 Y111.164 E5.59210
G1 X72.703 Y109.477 E5.61880
G1 X72.312 Y107.500 E5.64533
G1 X72.312 Y82.500 E5.97447
G1 X72.708 Y80.512 E6.00117
G1 X73.782 Y78.907 E6.02658
G1 E4.02658 F2400.00000
G92 E0
G1 X112.003 Y107.003 F7800.000
G1 E2.00000 F2400.00000
G1 X77.997 Y107.003 E2.44771 F1800.000
G1 X77.997 Y82.997 E2.76377
G1 X112.003 Y82.997 E3.21148
G1 X112.003 Y106.943 E3.52675
G1 X112.192 Y107.192 F7800.000
G1 X77.808 Y107.192 E3.97943 F1800.000
G1 X77.808 Y82.808 E4.30045
G1 X112.192 Y82.808 E4.75312
G1 X112.192 Y107.132 E5.07335
G1 X112.380 Y107.380 F7800.000
G1 X77.620 Y107.380 E5.53099 F1800.000
G1 X77.620 Y82.620 E5.85698
G1 X112.380 Y82.620 E6.31462
G1 X112.380 Y107.320 E6.63981
G1 X112.034 Y107.180 F7800.000
G1 X111.893 Y83.227 F7800.000
G1 X111.773 Y83.107 E6.64204 F1800.000
G1 X111.507 Y83.107 E6.64556
G1 X111.893 Y83.493 E6.65276
G1 X111.893 Y83.760 E6.65627
G1 X111.240 Y83.107 E6.66844
G1 X110.973 Y83.107 E6.67195
G1 X111.893 Y84.027 E6.68909
G1 X111.893 Y84.293 E6.69260
G1 X110.707 Y83.107 E6.71470
G1 X110.440 Y83.107 E6.71821
G1 X111.893 Y84.560 E6.74528
G1 X111.893 Y84.827 E6.74879
G1 X110.173 Y83.107 E6.78083
G1 X109.907 Y83.107 E6.78434
G1 X111.893 Y85.093 E6.82135
G1 X111.893 Y85.360 E6.82486
G1 X109.640 Y83.107 E6.86683
G1 X109.373 Y83.107 E6.87034
G1 X111.893 Y85.627 E6.91728
G1 X111.893 Y85.893 E6.92079
G1 X109.107 Y83.107 E6.97269
G1 X108.840 Y83.107 E6.97620
G1 X111.893 Y86.160 E7.03307
G1 X111.893 Y86.427 E7.03659
G1 X108.573 Y83.107 E7.09842
G1 X108.307 Y83.107 E7.10194
G1 X111.893 Y86.693 E7.16874
G1 X111.893 Y86.960 E7.17225
G1 X108.040 Y83.107 E7.24402
G1 X107.773 Y83.107 E7.24754
G1 X111.893 Y87.227 E7.32427
G1 X111.893 Y87.493 E7.32779
G1 X107.507 Y83.107 E7.40949
G1 X107.240 Y83.107 E7.41300
G1 X111.893 Y87.760 E7.49968
G1 X111.893 Y88.027 E7.50319
G1 X106.973 Y83.107 E7.59483
G1 X106.707 Y83.107 E7.59834
G1 X111.893 Y88.293 E7.69495
G1 X111.893 Y88.560 E7.69846
G1 X106.440 Y83.107 E7.80003
G1 X106.173 Y83.107 E7.80354
G1 X111.893 Y88.827 E7.91008
G1 X111.893 Y89.093 E7.91359
G1 X105.907 Y83.107 E8.02510
G1 X105.640 Y83.107 E8.02861
G1 X111.893 Y89.360 E8.14509
G1 X111.893 Y89.627 E8.14860
G1 X105.373 Y83.107 E8.27004
G1 X105.107 Y83.107 E8.27355
G1 X111.893 Y89.893 E8.39996
G1 X111.893 Y90.160 E8.40347
G1 X104.840 Y83.107 E8.53485
G1 X104.573 Y83.107 E8.53836
G1 X111.893 Y90.427 E8.67470
G1 X111.893 Y90.693 E8.67821
G1 X104.307 Y83.107 E8.81952
G1 X104.040 Y83.107 E8.82303
G1 X111.893 Y90.960 E8.96931
G1 X111.893 Y91.227 E8.97282
G1 X103.773 Y83.107 E9.12406
G1 X103.507 Y83.107 E9.12757
G1 X111.893 Y91.493 E9.28378
G1 X111.893 Y91.760 E9.28729
G1 X103.240 Y83.107 E9.44847
G1 X102.973 Y83.107 E9.45198
G1 X111.893 Y92.027 E9.61812
G1 X111.893 Y92.293 E9.62164
G1 X102.707 Y83.107 E9.79275
G1 X102.440 Y83.107 E9.79626
G1 X111.893 Y92.560 E9.97233
G1 X111.893 Y92.827 E9.97585
G1 X102.173 Y83.107 E10.15689
G1 X101.907 Y83.107 E10.16040
G1 X111.893 Y93.093 E10.34641
G1 X111.893 Y93.360 E10.34992
G1 X101.640 Y83.107 E10.54090
G1 X101.373 Y83.107 E10.54441
G1 X111.893 Y93.627 E10.74036
G1 X111.893 Y93.893 E10.74387
G1 X101.107 Y83.107 E10.94478
G1 X100.840 Y83.107 E10.94829
G1 X111.893 Y94.160 E11.15417
G1 X111.893 Y94.427 E11.15768
G1 X100.573 Y83.107 E11.36853
G1 X100.307 Y83.107 E11.37204
G1 X111.893 Y94.693 E11.58785
G1 X111.893 Y94.960 E11.59136
G1 X100.040 Y83.107 E11.81214
G1 X99.773 Y83.107 E11.81565
G1 X111.893 Y95.227 E12.04140
G1 X111.893 Y95.493 E12.04491
G1 X99.507 Y83.107 E12.27563
G1 X99.240 Y83.107 E12.27914
G1 X111.893 Y95.760 E12.51482
G1 X111.893 Y96.027 E12.51833
G1 X98.973 Y83.107 E12.75898
G1 X98.707 Y83.107 E12.76249
G1 X111.893 Y96.293 E13.00810
G1 X111.893 Y96.560 E13.01161
G1 X98.440 Y83.107 E13.26219
G1 X98.173 Y83.107 E13.26571
G1 X111.893 Y96.827 E13.52125
G1 X111.893 Y97.093 E13.52476
G1 X97.907 Y83.107 E13.78528
G1 X97.640 Y83.107 E13.78879
G1 X111.893 Y97.360 E14.05427
G1 X111.893 Y97.627 E14.05778
G1 X97.373 Y83.107 E14.32823
G1 X97.107 Y83.107 E14.33174
G1 X111.893 Y97.893 E14.60716
G1 X111.893 Y98.160 E14.61067
G1 X96.840 Y83.107 E14.89105
G1 X96.573 Y83.107 E14.89456
G1 X111.893 Y98.427 E15.17991
G1 X111.893 Y98.693 E15.18342
G1 X96.307 Y83.107 E15.47374
G1 X96.040 Y83.107 E15.47725
G1 X111.893 Y98.960 E15.77253
G1 X111.893 Y99.227 E15.77605
G1 X95.773 Y83.107 E16.07630
G1 X95.507 Y83.107 E16.07981
G1 X111.893 Y99.493 E16.38502
G1 X111.893 Y99.760 E16.38854
G1 X95.240 Y83.107 E16.69872
G1 X94.973 Y83.107 E16.70223
G1 X111.893 Y100.027 E17.01738
G1 X111.893 Y100.293 E17.02089
G1 X94.707 Y83.107 E17.34101
G1 X94.440 Y83.107 E17.34452
G1 X111.893 Y100.560 E17.66961
G1 X111.893 Y100.827 E17.67312
G1 X94.173 Y83.107 E18.00317
G1 X93.907 Y83.107 E18.00668
G1 X111.893 Y101.093 E18.34170
G1 X111.893 Y101.360 E18.34521
G1 X93.640 Y83.107 E18.68520
G1 X93.373 Y83.107 E18.68871
G1 X111.893 Y101.627 E19.03366
G1 X111.893 Y101.893 E19.03717
G1 X93.107 Y83.107 E19.38709
G1 X92.840 Y83.107 E19.39060
G1 X111.893 Y102.160 E19.74549
G1 X111.893 Y102.427 E19.74900
G1 X92.573 Y83.107 E20.10885
G1 X92.307 Y83.107 E20.11236
G1 X111.893 Y102.693 E20.47718
G1 X111.893 Y102.960 E20.48070
G1 X92.040 Y83.107 E20.85048
G1 X91.773 Y83.107 E20.85399
G1 X111.893 Y103.227 E21.22875
G1 X111.893 Y103.493 E21.23226
G1 X91.507 Y83.107 E21.61198
G1 X91.240 Y83.107 E21.61549
G1 X111.893 Y103.760 E22.00018
G1 X111.893 Y104.027 E22.00369
G1 X90.973 Y83.107 E22.39334
G1 X90.707 Y83.107 E22.39686
G1 X111.893 Y104.293 E22.79148
G1 X111.893 Y104.560 E22.79499
G1 X90.440 Y83.107 E23.19458
G1 X90.173 Y83.107 E23.19809
G1 X111.893 Y104.827 E23.60264
G1 X111.893 Y105.093 E23.60615
G1 X89.907 Y83.107 E24.01568
G1 X89.640 Y83.107 E24.01919
G1 X111.893 Y105.360 E24.43368
G1 X111.893 Y105.627 E24.43719
G1 X89.373 Y83.107 E24.85664
G1 X89.107 Y83.107 E24.86016
G1 X111.893 Y105.893 E25.28458
G1 X111.893 Y106.160 E25.28809
G1 X88.840 Y83.107 E25.71748
G1 X88.573 Y83.107 E25.72099
G1 X111.893 Y106.427 E26.15535
G1 X111.893 Y106.693 E26.15886
G1 X88.307 Y83.107 E26.59818
G1 X88.040 Y83.107 E26.60169
G1 X111.827 Y106.893 E27.04474
G1 X111.560 Y106.893 E27.04825
G1 X87.773 Y83.107 E27.49130
G1 X87.507 Y83.107 E27.49481
G1 X111.293 Y106.893 E27.93786
G1 X111.027 Y106.893 E27.94137
G1 X87.240 Y83.107 E28.38442
G1 X86.973 Y83.107 E28.38793
G1 X110.760 Y106.893 E28.83098
G1 X110.493 Y106.893 E28.83449
G1 X86.707 Y83.107 E29.27754
G1 X86.440 Y83.107 E29.28105
G1 X110.227 Y106.893 E29.72410
G1 X109.960 Y106.893 E29.72761
G1 X86.173 Y83.107 E30.17065
G1 X85.907 Y83.107 E30.17417
G1 X109.693 Y106.893 E30.61721
G1 X109.427 Y106.893 E30.62073
G1 X85.640 Y83.107 E31.06377
G1 X85.373 Y83.107 E31.06729
G1 X109.160 Y106.893 E31.51033
G1 X108.893 Y106.893 E31.51384
G1 X85.107 Y83.107 E31.95689
G1 X84.840 Y83.107 E31.96040
G1 X108.627 Y106.893 E32.40345
G1 X108.360 Y106.893 E32.40696
G1 X84.573 Y83.107 E32.85001
G1 X84.307 Y83.107 E32.85352
G1 X108.093 Y106.893 E33.29657
G1 X107.827 Y106.893 E33.30008
G1 X84.040 Y83.107 E33.74313
G1 X83.773 Y83.107 E33.74664
G1 X107.560 Y106.893 E34.18969
G1 X107.293 Y106.893 E34.19320
G1 X83.507 Y83.107 E34.63625
G1 X83.240 Y83.107 E34.63976
G1 X107.027 Y106.893 E35.08281
G1 X106.760 Y106.893 E35.08632
G1 X82.973 Y83.107 E35.52936
G1 X82.707 Y83.107 E35.53288
G1 X106.493 Y106.893 E35.97592
G1 X106.227 Y106.893 E35.97944
G1 X82.440 Y83.107 E36.42248
G1 X82.173 Y83.107 E36.42599
G1 X105.960 Y106.893 E36.86904
G1 X105.693 Y106.893 E36.87255
G1 X81.907 Y83.107 E37.31560
G1 X81.640 Y83.107 E37.31911
G1 X105.427 Y106.893 E37.76216
G1 X105.160 Y106.893 E37.76567
G1 X81.373 Y83.107 E38.20872
G1 X81.107 Y83.107 E38.21223
G1 X104.893 Y106.893 E38.65528
G1 X104.627 Y106.893 E38.65879
G1 X80.840 Y83.107 E39.10184
G1 X80.573 Y83.107 E39.10535
G1 X104.360 Y106.893 E39.54840
G1 X104.093 Y106.893 E39.55191
G1 X80.307 Y83.107 E39.99496
G1 X80.040 Y83.107 E39.99847
G1 X103.827 Y106.893 E40.44151
G1 X103.560 Y106.893 E40.44503
G1 X79.773 Y83.107 E40.88807
G1 X79.507 Y83.107 E40.89159
G1 X103.293 Y106.893 E41.33463
G1 X103.027 Y106.893 E41.33815
G1 X79.240 Y83.107 E41.78119
G1 X78.973 Y83.107 E41.78470
G1 X102.760 Y106.893 E42.22775
G1 X102.493 Y106.893 E42.23126
G1 X78.707 Y83.107 E42.67431
G1 X78.440 Y83.107 E42.67782
G1 X102.227 Y106.893 E43.12087
G1 X101.960 Y106.893 E43.12438
G1 X78.173 Y83.107 E43.56743
G1 X78.107 Y83.307 E43.57021
G1 X101.693 Y106.893 E44.00953
G1 X101.427 Y106.893 E44.01304
G1 X78.107 Y83.573 E44.44739
G1 X78.107 Y83.840 E44.45090
G1 X101.160 Y106.893 E44.88029
G1 X100.893 Y106.893 E44.88380
G1 X78.107 Y84.107 E45.30822
G1 X78.107 Y84.373 E45.31173
G1 X100.627 Y106.893 E45.73118
G1 X100.360 Y106.893 E45.73470
G1 X78.107 Y84.640 E46.14918
G1 X78.107 Y84.907 E46.15269
G1 X100.093 Y106.893 E46.56221
G1 X99.827 Y106.893 E46.56572
G1 X78.107 Y85.173 E46.97027
G1 X78.107 Y85.440 E46.97379
G1 X99.560 Y106.893 E47.37337
G1 X99.293 Y106.893 E47.37688
G1 X78.107 Y85.707 E47.77150
G1 X78.107 Y85.973 E47.77501
G1 X99.027 Y106.893 E48.16466
G1 X98.760 Y106.893 E48.16818
G1 X78.107 Y86.240 E48.55286
G1 X78.107 Y86.507 E48.55637
G1 X98.493 Y106.893 E48.93609
G1 X98.227 Y106.893 E48.93960
G1 X78.107 Y86.773 E49.31435
G1 X78.107 Y87.040 E49.31786
G1 X97.960 Y106.893 E49.68764
G1 X97.693 Y106.893 E49.69116
G1 X78.107 Y87.307 E50.05597
G1 X78.107 Y87.573 E50.05948
G1 X97.427 Y106.893 E50.41933
G1 X97.160 Y106.893 E50.42285
G1 X78.107 Y87.840 E50.77773
G1 X78.107 Y88.107 E50.78124
G1 X96.893 Y106.893 E51.13116
G1 X96.627 Y106.893 E51.13467
G1 X78.107 Y88.373 E51.47962
G1 X78.107 Y88.640 E51.48313
G1 X96.360 Y106.893 E51.82311
G1 X96.093 Y106.893 E51.82662
G1 X78.107 Y88.907 E52.16164
G1 X78.107 Y89.173 E52.16515
G1 X95.827 Y106.893 E52.49520
G1 X95.560 Y106.893 E52.49871
G1 X78.107 Y89.440 E52.82379
G1 X78.107 Y89.707 E52.82730
G1 X95.293 Y106.893 E53.14741
G1 X95.027 Y106.893 E53.15093
G1 X78.107 Y89.973 E53.46607
G1 X78.107 Y90.240 E53.46959
G1 X94.760 Y106.893 E53.77977
G1 X94.493 Y106.893 E53.78328
G1 X78.107 Y90.507 E54.08849
G1 X78.107 Y90.773 E54.09200
G1 X94.227 Y106.893 E54.39225
G1 X93.960 Y106.893 E54.39576
G1 X78.107 Y91.040 E54.69104
G1 X78.107 Y91.307 E54.69455
G1 X93.693 Y106.893 E54.98486
G1 X93.427 Y106.893 E54.98838
G1 X78.107 Y91.573 E55.27372
G1 X78.107 Y91.840 E55.27723
G1 X93.160 Y106.893 E55.55761
G1 X92.893 Y106.893 E55.56112
G1 X78.107 Y92.107 E55.83654
G1 X78.107 Y92.373 E55.84005
G1 X92.627 Y106.893 E56.11049
G1 X92.360 Y106.893 E56.11400
G1 X78.107 Y92.640 E56.37948
G1 X78.107 Y92.907 E56.38299
G1 X92.093 Y106.893 E56.64351
G1 X91.827 Y106.893 E56.64702
G1 X78.107 Y93.173 E56.90256
G1 X78.107 Y93.440 E56.90607
G1 X91.560 Y106.893 E57.15665
G1 X91.293 Y106.893 E57.16016
G1 X78.107 Y93.707 E57.40577
G1 X78.107 Y93.973 E57.40928
G1 X91.027 Y106.893 E57.64993
G1 X90.760 Y106.893 E57.65344
G1 X78.107 Y94.240 E57.88912
G1 X78.107 Y94.507 E57.89263
G1 X90.493 Y106.893 E58.12334
G1 X90.227 Y106.893 E58.12685
G1 X78.107 Y94.773 E58.35259
G1 X78.107 Y95.040 E58.35610
G1 X89.960 Y106.893 E58.57688
G1 X89.693 Y106.893 E58.58039
G1 X78.107 Y95.307 E58.79620
G1 X78.107 Y95.573 E58.79971
G1 X89.427 Y106.893 E59.01055
G1 X89.160 Y106.893 E59.01407
G1 X78.107 Y95.840 E59.21994
G1 X78.107 Y96.107 E59.22345
G1 X88.893 Y106.893 E59.42436
G1 X88.626 Y106.893 E59.42787
G1 X78.107 Y96.374 E59.62381
G1 X78.107 Y96.640 E59.62733
G1 X88.360 Y106.893 E59.81830
G1 X88.093 Y106.893 E59.82181
G1 X78.107 Y96.907 E60.00782
G1 X78.107 Y97.174 E60.01133
G1 X87.826 Y106.893 E60.19237
G1 X87.560 Y106.893 E60.19588
G1 X78.107 Y97.440 E60.37196
G1 X78.107 Y97.707 E60.37547
G1 X87.293 Y106.893 E60.54658
G1 X87.026 Y106.893 E60.55009
G1 X78.107 Y97.974 E60.71623
G1 X78.107 Y98.240 E60.71974
G1 X86.760 Y106.893 E60.88091
G1 X86.493 Y106.893 E60.88442
G1 X78.107 Y98.507 E61.04063
G1 X78.107 Y98.774 E61.04414
G1 X86.226 Y106.893 E61.19538
G1 X85.960 Y106.893 E61.19889
G1 X78.107 Y99.040 E61.34516
G1 X78.107 Y99.307 E61.34868
G1 X85.693 Y106.893 E61.48998
G1 X85.426 Y106.893 E61.49349
G1 X78.107 Y99.574 E61.62983
G1 X78.107 Y99.840 E61.63334
G1 X85.160 Y106.893 E61.76472
G1 X84.893 Y106.893 E61.76823
G1 X78.107 Y100.107 E61.89463
G1 X78.107 Y100.374 E61.89814
G1 X84.626 Y106.893 E62.01958
G1 X84.360 Y106.893 E62.02309
G1 X78.107 Y100.640 E62.13956
G1 X78.107 Y100.907 E62.14308
G1 X84.093 Y106.893 E62.25458
G1 X83.826 Y106.893 E62.25809
G1 X78.107 Y101.174 E62.36463
G1 X78.107 Y101.440 E62.36814
G1 X83.560 Y106.893 E62.46971
G1 X83.293 Y106.893 E62.47322
G1 X78.107 Y101.707 E62.56982
G1 X78.107 Y101.974 E62.57334
G1 X83.026 Y106.893 E62.66497
G1 X82.760 Y106.893 E62.66848
G1 X78.107 Y102.240 E62.75515
G1 X78.107 Y102.507 E62.75867
G1 X82.493 Y106.893 E62.84037
G1 X82.226 Y106.893 E62.84388
G1 X78.107 Y102.774 E62.92061
G1 X78.107 Y103.040 E62.92413
G1 X81.960 Y106.893 E62.99589
G1 X81.693 Y106.893 E62.99941
G1 X78.107 Y103.307 E63.06621
G1 X78.107 Y103.574 E63.06972
G1 X81.426 Y106.893 E63.13155
G1 X81.160 Y106.893 E63.13507
G1 X78.107 Y103.840 E63.19193
G1 X78.107 Y104.107 E63.19545
G1 X80.893 Y106.893 E63.24735
G1 X80.626 Y106.893 E63.25086
G1 X78.107 Y104.374 E63.29779
G1 X78.107 Y104.640 E63.30130
G1 X80.360 Y106.893 E63.34327
G1 X80.093 Y106.893 E63.34678
G1 X78.107 Y104.907 E63.38378
G1 X78.107 Y105.174 E63.38730
G1 X79.826 Y106.893 E63.41933
G1 X79.560 Y106.893 E63.42284
G1 X78.107 Y105.440 E63.44991
G1 X78.107 Y105.707 E63.45342
G1 X79.293 Y106.893 E63.47552
G1 X79.026 Y106.893 E63.47903
G1 X78.107 Y105.974 E63.49616
G1 X78.107 Y106.240 E63.49967
G1 X78.760 Y106.893 E63.51184
G1 X78.493 Y106.893 E63.51535
G1 X78.107 Y106.507 E63.52255
M140 S60 ; wait for bed temperature to be reached
G1 Z0.480 F7800.000
G1 X111.340 Y106.340 F7800.000
G1 X78.660 Y106.340 E64.71773 F3600.000
G1 X78.660 Y83.660 E65.54720
G1 X111.340 Y83.660 E66.74238
G1 X111.340 Y106.280 E67.56965
G1 X111.864 Y106.864 F7800.000
G1 X78.136 Y106.864 E68.80313 F3600.000
G1 X78.136 Y83.136 E69.67089
G1 X111.864 Y83.136 E70.90437
G1 X111.864 Y106.804 E71.76994
G1 X112.300 Y107.300 F7800.000
G1 X77.700 Y107.300 E72.61214 F1800.000
G1 X77.700 Y82.700 E73.21093
G1 X112.300 Y82.700 E74.05313
G1 X112.300 Y107.240 E74.65046
G1 X111.954 Y107.100 F7800.000
G1 X110.738 Y106.000 F7800.000
G1 X111.000 Y105.738 E74.66406 F1200.000
