; generated by Slic3r 1.2.9 on 2016-12-26 at 20:58:33

; external perimeters extrusion width = 0.40mm
; perimeters extrusion width = 0.67mm
; infill extrusion width = 0.67mm
; solid infill extrusion width = 0.67mm
; top infill extrusion width = 0.67mm

M107
M190 S80 ; set bed temperature
M104 S200 ; set temperature
G1 Z5 F500 ; lift nozzle
G28 X Y ; home X & Y axes
G29 ; auto bed leveling
G1 Z5 F500 ; lift nozzle

M109 S200 ; wait for temperature to be reached
G21 ; set units to millimeters
G90 ; use absolute coordinates
M82 ; use absolute distances for extrusion
G92 E0
G1 Z0.300 F7800.000
G1 E-2.00000 F2400.00000
G92 E0
G1 X40.122 Y74.636 F7800.000
G1 E2.00000 F2400.00000
G1 X44.000 Y73.818 E2.26475 F1800.000
G1 X146.000 Y73.818 E9.07890
G1 X148.736 Y74.216 E9.26362
G1 X151.246 Y75.377 E9.44834 F1800.000
G1 X153.321 Y77.204 E9.63306
G1 X154.789 Y79.547 E9.81778
G1 X155.607 Y83.425 E10.08254
G1 X155.607 Y106.575 E11.62908
G1 X155.209 Y109.311 E11.81380
G1 X154.048 Y111.821 E11.99852
G1 X152.221 Y113.896 E12.18324
G1 X149.878 Y115.364 E12.36796
G1 X146.000 Y116.182 E12.63272
G1 X44.000 Y116.182 E19.44687
G1 X41.264 Y115.784 E19.63159
G1 X38.754 Y114.623 E19.81631
G1 X36.679 Y112.796 E20.00103
G1 X35.211 Y110.453 E20.18575
G1 X34.393 Y106.575 E20.45050
G1 X34.393 Y83.425 E21.99705
G1 X34.791 Y80.689 E22.18177
G1 X35.952 Y78.179 E22.36649
G1 X37.779 Y76.104 E22.55121
G1 X40.071 Y74.667 E22.73192
G1 X40.412 Y75.129 F7800.000
G1 X40.620 Y75.007 E22.74805 F1800.000
G1 X44.000 Y74.354 E22.97803
G1 X146.000 Y74.354 E29.79218
G1 X148.657 Y74.752 E29.97165
G1 X151.081 Y75.910 E30.15112 F1800.000
G1 X153.059 Y77.728 E30.33059
G1 X154.418 Y80.045 E30.51006
G1 X155.071 Y83.425 E30.74005
G1 X155.071 Y106.575 E32.28659
G1 X154.673 Y109.232 E32.46606
G1 X153.515 Y111.656 E32.64553
G1 X151.697 Y113.634 E32.82500
G1 X149.380 Y114.993 E33.00447
G1 X146.000 Y115.646 E33.23445
G1 X44.000 Y115.646 E40.04861
G1 X41.343 Y115.248 E40.22807
G1 X38.919 Y114.090 E40.40754
G1 X36.941 Y112.272 E40.58701
G1 X35.582 Y109.955 E40.76648
G1 X34.929 Y106.575 E40.99647
G1 X34.929 Y83.425 E42.54301
G1 X35.327 Y80.768 E42.72248
G1 X36.485 Y78.344 E42.90195
G1 X38.303 Y76.366 E43.08142
G1 X40.360 Y75.160 E43.24075
G1 X40.682 Y75.627 F7800.000
G1 X41.113 Y75.392 E43.27351 F1800.000
G1 X44.000 Y74.889 E43.46928
G1 X146.000 Y74.889 E50.28343
G1 X148.575 Y75.287 E50.45749
G1 X150.910 Y76.443 E50.63155 F1800.000
G1 X152.788 Y78.249 E50.80561
G1 X154.033 Y80.538 E50.97967
G1 X154.536 Y83.425 E51.17543
G1 X154.536 Y106.575 E52.72198
G1 X154.138 Y109.150 E52.89604
G1 X152.982 Y111.485 E53.07010
G1 X151.176 Y113.363 E53.24416
G1 X148.887 Y114.608 E53.41822
G1 X146.000 Y115.111 E53.61398
G1 X44.000 Y115.111 E60.42813
G1 X41.425 Y114.713 E60.60219
G1 X39.090 Y113.557 E60.77625
G1 X37.212 Y111.751 E60.95031
G1 X35.967 Y109.462 E61.12437
G1 X35.464 Y106.575 E61.32013
G1 X35.464 Y83.425 E62.86668
G1 X35.862 Y80.850 E63.04074
G1 X37.018 Y78.515 E63.21480
G1 X38.824 Y76.637 E63.38886
G1 X40.630 Y75.655 E63.52615
G1 E61.52615 F2400.00000
G92 E0
G1 X119.865 Y94.140 F7800.000
G1 E2.00000 F2400.00000
G1 X121.602 Y93.478 E2.12419 F1800.000
G1 X121.621 Y94.033 E2.16130
G1 X121.721 Y94.033 E2.16797
G1 X121.727 Y94.283 E2.18467
G1 X121.821 Y94.283 E2.19092
G1 X121.827 Y94.533 E2.20763
G1 X121.915 Y94.533 E2.21352
G1 X121.922 Y94.733 E2.22689
G1 X122.021 Y94.733 E2.23349
G1 X122.027 Y94.983 E2.25020
G1 X122.121 Y94.983 E2.25644
G1 X122.127 Y95.233 E2.27315
G1 X122.216 Y95.233 E2.27906
G1 X122.231 Y95.700 E2.31028
G1 X122.318 Y95.736 E2.31656
G1 X122.319 Y95.773 E2.31903
G1 X122.433 Y95.798 E2.32682
G1 X122.451 Y97.467 E2.43831
G1 X122.327 Y97.467 E2.44660
G1 X122.321 Y97.717 E2.46331
G1 X122.196 Y97.717 E2.47163
G1 X122.190 Y97.817 E2.47833
G1 X122.149 Y97.817 E2.48106
G1 X122.149 Y97.867 E2.48440
G1 X120.410 Y97.867 E2.60052
G1 X120.404 Y97.767 E2.60722
G1 X120.293 Y97.767 E2.61461
G1 X120.287 Y97.617 E2.62464
G1 X120.185 Y97.617 E2.63146
G1 X120.178 Y97.417 E2.64483
G1 X120.073 Y97.417 E2.65184
G1 X120.067 Y97.067 E2.67522
G1 X119.966 Y97.067 E2.68194
G1 X119.960 Y96.417 E2.72537
G1 X119.854 Y96.417 E2.73246
G1 X119.865 Y94.200 E2.88055
G1 X120.399 Y94.510 F7800.000
G1 X121.092 Y94.246 E2.93011 F1800.000
G1 X121.103 Y94.569 E2.95169
G1 X121.199 Y94.569 E2.95809
G1 X121.205 Y94.819 E2.97479
G1 X121.299 Y94.819 E2.98104
G1 X121.305 Y95.069 E2.99775
G1 X121.397 Y95.069 E3.00387
G1 X121.403 Y95.269 E3.01724
G1 X121.499 Y95.269 E3.02361
G1 X121.505 Y95.519 E3.04032
G1 X121.599 Y95.519 E3.04656
G1 X121.605 Y95.769 E3.06327
G1 X121.697 Y95.769 E3.06939
G1 X121.707 Y96.064 E3.08917
G1 X121.798 Y96.102 E3.09580
G1 X121.803 Y96.204 E3.10266
G1 X121.902 Y96.227 E3.10945
G1 X121.910 Y96.931 E3.15651
G1 X121.805 Y96.931 E3.16349
G1 X121.799 Y97.181 E3.18020
G1 X121.694 Y97.181 E3.18719
G1 X121.688 Y97.281 E3.19389
G1 X121.613 Y97.281 E3.19887
G1 X121.613 Y97.332 E3.20221
G1 X120.912 Y97.332 E3.24902
G1 X120.906 Y97.231 E3.25571
G1 X120.806 Y97.231 E3.26237
G1 X120.800 Y97.082 E3.27240
G1 X120.703 Y97.082 E3.27886
G1 X120.697 Y96.882 E3.29222
G1 X120.599 Y96.882 E3.29874
G1 X120.593 Y96.531 E3.32213
G1 X120.496 Y96.531 E3.32854
G1 X120.490 Y95.882 E3.37197
G1 X120.392 Y95.882 E3.37852
G1 X120.399 Y94.570 E3.46613
G1 X120.303 Y94.122 F7800.000
G1 X116.842 Y97.720 F7800.000
G1 X114.847 Y97.705 E3.59943 F1800.000
G1 X114.803 Y97.293 E3.62712
G1 X114.724 Y97.268 E3.63268
G1 X114.691 Y96.968 E3.65288
G1 X114.581 Y96.909 E3.66119
G1 X114.570 Y96.674 E3.67692
G1 X114.504 Y96.633 E3.68210
G1 X114.500 Y96.589 E3.68505
G1 X114.423 Y96.565 E3.69045
G1 X114.390 Y96.250 E3.71160
G1 X114.311 Y96.205 E3.71768
G1 X114.292 Y96.033 E3.72921
G1 X114.181 Y95.978 E3.73751
G1 X114.175 Y95.859 E3.74547
G1 X114.126 Y95.842 E3.74892
G1 X114.104 Y95.633 E3.76299
G1 X113.963 Y95.586 E3.77292
G1 X113.953 Y90.767 E4.09482
G1 X113.910 Y90.767 E4.09767
G1 X113.904 Y90.667 E4.10436
G1 X113.810 Y90.667 E4.11061
G1 X113.804 Y90.567 E4.11730
G1 X113.651 Y90.567 E4.12750
G1 X113.651 Y90.504 E4.13174
G1 X113.451 Y90.500 E4.14510
G1 X113.451 Y90.454 E4.14822
G1 X113.251 Y90.450 E4.16158
G1 X113.251 Y90.415 E4.16392
G1 X111.727 Y90.412 E4.26575
G1 X111.719 Y90.318 E4.27205
G1 X111.584 Y90.318 E4.28104
G1 X111.578 Y90.117 E4.29448
G1 X111.479 Y90.117 E4.30107
G1 X111.473 Y89.867 E4.31778
G1 X111.379 Y89.867 E4.32403
G1 X111.373 Y89.617 E4.34073
G1 X111.279 Y89.617 E4.34698
G1 X111.273 Y89.367 E4.36369
G1 X111.185 Y89.367 E4.36958
G1 X111.178 Y89.167 E4.38295
G1 X111.079 Y89.167 E4.38955
G1 X111.073 Y88.917 E4.40625
G1 X110.958 Y88.917 E4.41393
G1 X110.958 Y87.086 E4.53626
G1 X117.665 Y87.087 E4.98434
G1 X117.781 Y87.135 E4.99273
G1 X118.688 Y87.144 E5.05333
G1 X118.694 Y87.233 E5.05930
G1 X118.792 Y87.233 E5.06580
G1 X118.807 Y87.478 E5.08223
G1 X118.916 Y87.478 E5.08952
G1 X118.922 Y87.683 E5.10318
G1 X119.021 Y87.683 E5.10974
G1 X119.027 Y87.933 E5.12645
G1 X119.121 Y87.933 E5.13269
G1 X119.127 Y88.183 E5.14940
G1 X119.215 Y88.183 E5.15529
G1 X119.222 Y88.383 E5.16866
G1 X119.321 Y88.383 E5.17526
G1 X119.327 Y88.633 E5.19197
G1 X119.425 Y88.633 E5.19850
G1 X119.453 Y89.988 E5.28906
G1 X119.607 Y90.462 E5.32236
G1 X119.346 Y90.529 E5.34033
G1 X119.346 Y90.750 E5.35511
G1 X119.149 Y90.754 E5.36833
G1 X119.149 Y90.817 E5.37258
G1 X118.996 Y90.817 E5.38277
G1 X118.990 Y90.917 E5.38946
G1 X118.949 Y90.917 E5.39220
G1 X118.949 Y90.967 E5.39554
G1 X118.849 Y90.967 E5.40222
G1 X118.849 Y91.017 E5.40556
G1 X118.696 Y91.017 E5.41575
G1 X118.690 Y91.117 E5.42245
G1 X118.596 Y91.117 E5.42869
G1 X118.590 Y91.217 E5.43539
G1 X118.549 Y91.217 E5.43812
G1 X118.549 Y91.267 E5.44146
G1 X118.396 Y91.267 E5.45165
G1 X118.390 Y91.367 E5.45835
G1 X118.296 Y91.367 E5.46460
G1 X118.290 Y91.467 E5.47129
G1 X118.196 Y91.467 E5.47754
G1 X118.190 Y91.567 E5.48423
G1 X118.096 Y91.567 E5.49048
G1 X118.090 Y91.667 E5.49717
G1 X118.013 Y91.667 E5.50227
G1 X118.007 Y91.817 E5.51230
G1 X117.896 Y91.817 E5.51969
G1 X117.890 Y91.917 E5.52639
G1 X117.813 Y91.917 E5.53149
G1 X117.807 Y92.067 E5.54152
G1 X117.696 Y92.067 E5.54891
G1 X117.690 Y92.167 E5.55561
G1 X117.613 Y92.167 E5.56071
G1 X117.607 Y92.317 E5.57074
G1 X117.522 Y92.317 E5.57640
G1 X117.515 Y92.517 E5.58977
G1 X117.413 Y92.517 E5.59660
G1 X117.407 Y92.667 E5.60663
G1 X117.322 Y92.667 E5.61229
G1 X117.315 Y92.867 E5.62566
G1 X117.222 Y92.867 E5.63191
G1 X117.215 Y93.067 E5.64528
G1 X117.127 Y93.067 E5.65117
G1 X117.121 Y93.317 E5.66788
G1 X117.033 Y93.317 E5.67372
G1 X117.027 Y93.667 E5.69711
G1 X116.942 Y93.667 E5.70276
G1 X116.942 Y94.067 E5.72948
G1 X116.840 Y94.067 E5.73633
G1 X116.833 Y94.667 E5.77641
G1 X116.742 Y94.667 E5.78249
G1 X116.742 Y95.583 E5.84367
G1 X116.842 Y95.583 E5.85035
G1 X116.842 Y97.660 E5.98911
G1 X116.306 Y97.180 F7800.000
G1 X115.329 Y97.173 E6.05440 F1800.000
G1 X115.299 Y96.888 E6.07360
G1 X115.219 Y96.862 E6.07922
G1 X115.193 Y96.628 E6.09497
G1 X115.101 Y96.579 E6.10195
G1 X115.091 Y96.372 E6.11583
G1 X115.012 Y96.322 E6.12203
G1 X114.999 Y96.183 E6.13133
G1 X114.919 Y96.158 E6.13691
G1 X114.895 Y95.921 E6.15286
G1 X114.813 Y95.874 E6.15915
G1 X114.792 Y95.684 E6.17190
G1 X114.700 Y95.639 E6.17873
G1 X114.692 Y95.468 E6.19011
G1 X114.622 Y95.445 E6.19503
G1 X114.600 Y95.233 E6.20923
G1 X114.498 Y95.199 E6.21643
G1 X114.488 Y90.231 E6.54831
G1 X114.412 Y90.231 E6.55333
G1 X114.406 Y90.132 E6.56003
G1 X114.312 Y90.132 E6.56627
G1 X114.306 Y90.031 E6.57297
G1 X114.187 Y90.031 E6.58091
G1 X114.187 Y89.977 E6.58457
G1 X113.987 Y89.973 E6.59794
G1 X113.987 Y89.927 E6.60106
G1 X113.787 Y89.923 E6.61442
G1 X113.787 Y89.881 E6.61726
G1 X112.218 Y89.878 E6.72208
G1 X112.210 Y89.783 E6.72845
G1 X112.103 Y89.783 E6.73557
G1 X112.097 Y89.582 E6.74902
G1 X112.001 Y89.582 E6.75539
G1 X111.995 Y89.332 E6.77210
G1 X111.901 Y89.332 E6.77835
G1 X111.895 Y89.082 E6.79505
G1 X111.801 Y89.082 E6.80130
G1 X111.795 Y88.832 E6.81801
G1 X111.703 Y88.832 E6.82413
G1 X111.697 Y88.632 E6.83749
G1 X111.601 Y88.632 E6.84387
G1 X111.595 Y88.382 E6.86057
G1 X111.493 Y88.382 E6.86733
G1 X111.493 Y87.622 E6.91809
G1 X117.559 Y87.623 E7.32332
G1 X117.673 Y87.669 E7.33153
G1 X118.187 Y87.675 E7.36589
G1 X118.194 Y87.769 E7.37218
G1 X118.288 Y87.769 E7.37852
G1 X118.304 Y88.014 E7.39496
G1 X118.397 Y88.014 E7.40120
G1 X118.404 Y88.219 E7.41486
G1 X118.499 Y88.219 E7.42122
G1 X118.505 Y88.469 E7.43793
G1 X118.599 Y88.469 E7.44417
G1 X118.605 Y88.719 E7.46088
G1 X118.697 Y88.719 E7.46700
G1 X118.703 Y88.918 E7.48037
G1 X118.799 Y88.918 E7.48674
G1 X118.805 Y89.168 E7.50345
G1 X118.900 Y89.168 E7.50980
G1 X118.921 Y90.085 E7.57103
G1 X118.811 Y90.113 E7.57866
G1 X118.811 Y90.223 E7.58601
G1 X118.613 Y90.227 E7.59923
G1 X118.613 Y90.281 E7.60290
G1 X118.494 Y90.281 E7.61084
G1 X118.488 Y90.382 E7.61753
G1 X118.413 Y90.382 E7.62252
G1 X118.413 Y90.431 E7.62586
G1 X118.313 Y90.431 E7.63254
G1 X118.313 Y90.481 E7.63588
G1 X118.194 Y90.481 E7.64382
G1 X118.188 Y90.582 E7.65051
G1 X118.094 Y90.582 E7.65676
G1 X118.088 Y90.681 E7.66346
G1 X118.013 Y90.681 E7.66844
G1 X118.013 Y90.731 E7.67178
G1 X117.894 Y90.731 E7.67972
G1 X117.888 Y90.832 E7.68642
G1 X117.794 Y90.832 E7.69266
G1 X117.788 Y90.931 E7.69936
G1 X117.694 Y90.931 E7.70560
G1 X117.688 Y91.031 E7.71230
G1 X117.594 Y91.031 E7.71855
G1 X117.588 Y91.132 E7.72524
G1 X117.500 Y91.132 E7.73108
G1 X117.494 Y91.281 E7.74111
G1 X117.394 Y91.281 E7.74776
G1 X117.388 Y91.382 E7.75446
G1 X117.300 Y91.382 E7.76029
G1 X117.294 Y91.531 E7.77032
G1 X117.194 Y91.531 E7.77698
G1 X117.188 Y91.632 E7.78368
G1 X117.100 Y91.632 E7.78951
G1 X117.094 Y91.781 E7.79954
G1 X117.003 Y91.781 E7.80558
G1 X116.997 Y91.981 E7.81895
G1 X116.900 Y91.981 E7.82540
G1 X116.894 Y92.132 E7.83543
G1 X116.803 Y92.132 E7.84147
G1 X116.797 Y92.332 E7.85484
G1 X116.703 Y92.332 E7.86108
G1 X116.697 Y92.531 E7.87445
G1 X116.605 Y92.531 E7.88057
G1 X116.599 Y92.781 E7.89728
G1 X116.507 Y92.781 E7.90338
G1 X116.501 Y93.132 E7.92677
G1 X116.406 Y93.132 E7.93308
G1 X116.406 Y93.531 E7.95980
G1 X116.310 Y93.531 E7.96626
G1 X116.303 Y94.132 E8.00635
G1 X116.207 Y94.132 E8.01281
G1 X116.207 Y96.118 E8.14555
G1 X116.306 Y96.118 E8.15223
G1 X116.306 Y97.120 E8.21917
G1 X116.305 Y97.580 F7800.000
G1 X114.364 Y98.238 F7800.000
G1 X116.034 Y98.250 E8.33071 F1800.000
G1 X116.028 Y98.847 E8.37063
G1 X116.008 Y98.847 E8.37196
G1 X116.002 Y98.947 E8.37866
G1 X115.824 Y98.947 E8.39055
G1 X115.820 Y101.856 E8.58486
G1 X115.963 Y101.878 E8.59453
G1 X115.967 Y101.971 E8.60076
G1 X116.079 Y101.999 E8.60848
G1 X116.095 Y102.225 E8.62357
G1 X116.167 Y102.243 E8.62849
G1 X116.183 Y102.540 E8.64836
G1 X116.378 Y102.575 E8.66162
G1 X116.408 Y102.930 E8.68542
G1 X116.474 Y102.946 E8.68994
G1 X116.490 Y103.205 E8.70723
G1 X116.686 Y103.247 E8.72061
G1 X116.726 Y103.637 E8.74682
G1 X116.783 Y103.652 E8.75077
G1 X116.800 Y103.877 E8.76584
G1 X116.949 Y103.914 E8.77612
G1 X116.958 Y104.098 E8.78839
G1 X117.077 Y104.159 E8.79736
G1 X117.115 Y104.583 E8.82576
G1 X117.214 Y104.608 E8.83257
G1 X117.234 Y104.795 E8.84514
G1 X117.265 Y104.803 E8.84730
G1 X117.266 Y104.832 E8.84917
G1 X117.353 Y104.874 E8.85558
G1 X117.369 Y105.204 E8.87767
G1 X99.371 Y105.204 E10.07998
G1 X99.371 Y84.796 E11.44332
G1 X144.629 Y84.796 E14.46676
G1 X144.629 Y105.204 E15.83010
G1 X129.078 Y105.204 E16.86899
G1 X129.078 Y104.547 E16.91285
G1 X128.932 Y104.547 E16.92260
G1 X128.925 Y104.366 E16.93469
G1 X128.823 Y104.365 E16.94151
G1 X128.812 Y104.142 E16.95644
G1 X128.731 Y104.139 E16.96187
G1 X128.730 Y104.115 E16.96345
G1 X128.649 Y104.101 E16.96889
G1 X128.637 Y103.676 E16.99726
G1 X128.515 Y103.674 E17.00539
G1 X128.503 Y103.451 E17.02028
G1 X128.440 Y103.450 E17.02448
G1 X128.432 Y103.232 E17.03907
G1 X128.302 Y103.228 E17.04775
G1 X128.285 Y102.978 E17.06449
G1 X128.197 Y102.976 E17.07039
G1 X128.181 Y102.763 E17.08468
G1 X128.090 Y102.761 E17.09077
G1 X128.068 Y102.501 E17.10823
G1 X127.931 Y102.500 E17.11734
G1 X127.920 Y102.291 E17.13130
G1 X127.824 Y102.271 E17.13784
G1 X127.801 Y101.883 E17.16377
G1 X127.738 Y101.879 E17.16805
G1 X127.736 Y101.828 E17.17140
G1 X127.641 Y101.805 E17.17791
G1 X127.618 Y101.289 E17.21243
G1 X127.500 Y101.285 E17.22032
G1 X127.483 Y101.051 E17.23598
G1 X127.383 Y101.050 E17.24272
G1 X127.383 Y100.753 E17.26260
G1 X125.249 Y100.749 E17.40513
G1 X125.243 Y100.497 E17.42198
G1 X125.149 Y100.497 E17.42822
G1 X125.143 Y100.247 E17.44493
G1 X125.040 Y100.247 E17.45175
G1 X125.034 Y100.047 E17.46512
G1 X124.949 Y100.047 E17.47079
G1 X124.943 Y99.797 E17.48750
G1 X124.849 Y99.797 E17.49374
G1 X124.843 Y99.547 E17.51045
G1 X124.740 Y99.547 E17.51728
G1 X124.734 Y99.347 E17.53064
G1 X124.627 Y99.347 E17.53781
G1 X124.620 Y99.188 E17.54847
G1 X123.591 Y99.194 E17.61721
G1 X122.683 Y98.468 E17.69488
G1 X122.758 Y98.253 E17.71010
G1 X122.843 Y98.253 E17.71573
G1 X122.849 Y98.003 E17.73243
G1 X122.993 Y98.003 E17.74203
G1 X122.964 Y95.370 E17.91794
G1 X122.754 Y95.322 E17.93231
G1 X122.734 Y94.697 E17.97407
G1 X122.649 Y94.697 E17.97976
G1 X122.643 Y94.447 E17.99647
G1 X122.549 Y94.447 E18.00272
G1 X122.543 Y94.197 E18.01942
G1 X122.440 Y94.197 E18.02625
G1 X122.434 Y93.997 E18.03962
G1 X122.349 Y93.997 E18.04528
G1 X122.343 Y93.747 E18.06199
G1 X122.249 Y93.747 E18.06824
G1 X122.243 Y93.497 E18.08494
G1 X122.139 Y93.497 E18.09188
G1 X122.112 Y92.710 E18.14452
G1 X119.332 Y93.771 E18.34334
G1 X119.315 Y96.953 E18.55591
G1 X119.429 Y96.953 E18.56355
G1 X119.436 Y97.603 E18.60697
G1 X119.541 Y97.603 E18.61399
G1 X119.547 Y97.953 E18.63738
G1 X119.660 Y97.953 E18.64487
G1 X119.666 Y98.153 E18.65824
G1 X119.774 Y98.153 E18.66544
G1 X119.780 Y98.303 E18.67547
G1 X119.902 Y98.303 E18.68359
G1 X119.908 Y98.403 E18.69029
G1 X121.616 Y98.403 E18.80434
G1 X121.616 Y99.219 E18.85890
G1 X121.416 Y99.223 E18.87226
G1 X121.416 Y99.269 E18.87538
G1 X121.084 Y99.269 E18.89753
G1 X121.084 Y99.222 E18.90066
G1 X120.863 Y99.219 E18.91544
G1 X120.862 Y99.174 E18.91844
G1 X120.684 Y99.171 E18.93034
G1 X120.684 Y99.123 E18.93357
G1 X120.484 Y99.119 E18.94693
G1 X120.484 Y99.073 E18.95005
G1 X120.284 Y99.069 E18.96342
