; generated by Slic3r 1.2.9 on 2017-11-09 at 20:37:15

; external perimeters extrusion width = 0.40mm
; perimeters extrusion width = 0.58mm
; infill extrusion width = 0.58mm
; solid infill extrusion width = 0.58mm
; top infill extrusion width = 0.58mm

M107
M190 S65 ; set bed temperature
M104 S190 ; set temperature
;G1 Z5 F200 ; lift nozzle
G28 X Y Z ; home X & Y axes
G29 ; auto bed leveling
G91 ; set relative coordinates
G1 Z10 F200 ; lift nozzle
G90 ; set absolute coordinates

M109 S190 ; wait for temperature to be reached
G21 ; set units to millimeters
G90 ; use absolute coordinates
M82 ; use absolute distances for extrusion
G92 E0
G1 Z0.240 F7800.000
G1 E-2.00000 F2400.00000
G92 E0
G1 X78.650 Y72.747 F7800.000
G1 E2.00000 F2400.00000
G1 X80.348 Y71.573 E2.02718 F1800.000
G1 X82.500 Y71.123 E2.05613
G1 X107.500 Y71.123 E2.38527
G1 X109.526 Y71.519 E2.41245
G1 X111.253 Y72.650 E2.43963 F1800.000
G1 X112.427 Y74.348 E2.46681
G1 X112.877 Y76.500 E2.49575
G1 X112.877 Y113.500 E2.98289
G1 X112.481 Y115.526 E3.01007
G1 X111.350 Y117.253 E3.03724
G1 X109.652 Y118.427 E3.06442
G1 X107.500 Y118.877 E3.09337
G1 X82.500 Y118.877 E3.42251
G1 X80.474 Y118.481 E3.44969
G1 X78.747 Y117.350 E3.47687
G1 X77.573 Y115.652 E3.50405
G1 X77.123 Y113.500 E3.53300
G1 X77.123 Y76.500 E4.02013
G1 X77.519 Y74.474 E4.04731
G1 X78.617 Y72.797 E4.07370
G1 X78.815 Y72.857 F7800.000
G1 X78.836 Y72.827 E4.07418 F1800.000
G1 X80.523 Y71.703 E4.10088
G1 X82.500 Y71.312 E4.12741
G1 X107.500 Y71.312 E4.45655
G1 X109.488 Y71.708 E4.48325
G1 X111.173 Y72.836 E4.50994 F1800.000
G1 X112.297 Y74.523 E4.53663
G1 X112.688 Y76.500 E4.56317
G1 X112.688 Y113.500 E5.05030
G1 X112.292 Y115.488 E5.07699
G1 X111.164 Y117.173 E5.10368
G1 X109.477 Y118.297 E5.13038
G1 X107.500 Y118.688 E5.15691
G1 X82.500 Y118.688 E5.48605
G1 X80.512 Y118.292 E5.51275
G1 X78.827 Y117.164 E5.53944
G1 X77.703 Y115.477 E5.56613
G1 X77.312 Y113.500 E5.59267
G1 X77.312 Y76.500 E6.07980
G1 X77.708 Y74.512 E6.10649
G1 X78.782 Y72.907 E6.13191
G1 E4.13191 F2400.00000
G92 E0
G1 X87.861 Y110.132 F7800.000
G1 E2.00000 F2400.00000
G1 X87.713 Y110.381 E2.00382 F1800.000
G1 X87.526 Y110.593 E2.00753
G1 X87.303 Y110.766 E2.01125
G1 X87.052 Y110.894 E2.01496
G1 X86.781 Y110.973 E2.01868
G1 X86.500 Y110.999 E2.02239
G1 X86.219 Y110.973 E2.02611
G1 X85.948 Y110.894 E2.02982
G1 X85.697 Y110.766 E2.03354
G1 X85.474 Y110.593 E2.03725
G1 X85.287 Y110.381 E2.04097
G1 X85.139 Y110.132 E2.04479
G1 X85.028 Y109.789 E2.04953
G1 X85.001 Y109.500 E2.05335
G1 X85.027 Y109.219 E2.05707
G1 X85.106 Y108.948 E2.06078
G1 X85.234 Y108.697 E2.06450
G1 X85.407 Y108.474 E2.06821
G1 X85.619 Y108.287 E2.07193
G1 X85.862 Y108.144 E2.07564
G1 X86.134 Y108.045 E2.07946
G1 X86.487 Y108.000 E2.08414 F1800.000
G1 X86.780 Y108.027 E2.08802
G1 X87.052 Y108.106 E2.09174
G1 X87.303 Y108.234 E2.09546
G1 X87.526 Y108.407 E2.09917
G1 X87.713 Y108.619 E2.10289
G1 X87.861 Y108.868 E2.10670
G1 X87.972 Y109.211 E2.11145
G1 X87.999 Y109.500 E2.11527
G1 X87.972 Y109.789 E2.11909
G1 X87.879 Y110.074 E2.12304
G1 X87.688 Y110.054 F7800.000
G1 X87.560 Y110.270 E2.12635 F1800.000
G1 X87.397 Y110.455 E2.12960
G1 X87.202 Y110.606 E2.13284
G1 X86.982 Y110.718 E2.13609
G1 X86.745 Y110.787 E2.13934
G1 X86.500 Y110.810 E2.14258
G1 X86.255 Y110.787 E2.14583
G1 X86.018 Y110.718 E2.14907
G1 X85.798 Y110.606 E2.15232
G1 X85.603 Y110.455 E2.15556
G1 X85.440 Y110.270 E2.15881
G1 X85.312 Y110.054 E2.16212
G1 X85.214 Y109.750 E2.16632
G1 X85.190 Y109.500 E2.16963
G1 X85.213 Y109.255 E2.17288
G1 X85.282 Y109.018 E2.17612
G1 X85.394 Y108.798 E2.17937
G1 X85.545 Y108.603 E2.18261
G1 X85.730 Y108.440 E2.18586
G1 X85.942 Y108.315 E2.18910
G1 X86.179 Y108.230 E2.19241
G1 X86.491 Y108.190 E2.19655 F1800.000
G1 X86.745 Y108.213 E2.19992
G1 X86.982 Y108.282 E2.20317
G1 X87.202 Y108.394 E2.20641
G1 X87.397 Y108.545 E2.20966
G1 X87.560 Y108.730 E2.21290
G1 X87.688 Y108.946 E2.21622
G1 X87.786 Y109.250 E2.22041
G1 X87.810 Y109.500 E2.22372
G1 X87.786 Y109.750 E2.22703
G1 X87.706 Y109.996 E2.23044
G1 X87.515 Y109.975 F7800.000
G1 X87.407 Y110.159 E2.23324 F1800.000
G1 X87.267 Y110.317 E2.23602
G1 X87.100 Y110.446 E2.23880
G1 X86.913 Y110.542 E2.24157
G1 X86.710 Y110.601 E2.24435
G1 X86.500 Y110.621 E2.24713
G1 X86.290 Y110.601 E2.24990
G1 X86.087 Y110.542 E2.25268
G1 X85.900 Y110.446 E2.25546
G1 X85.733 Y110.317 E2.25823
G1 X85.593 Y110.159 E2.26101
G1 X85.485 Y109.975 E2.26381
G1 X85.399 Y109.712 E2.26746
G1 X85.379 Y109.500 E2.27026
G1 X85.399 Y109.290 E2.27304
G1 X85.458 Y109.088 E2.27581
G1 X85.554 Y108.900 E2.27859
G1 X85.683 Y108.733 E2.28137
G1 X85.841 Y108.593 E2.28414
G1 X86.023 Y108.486 E2.28692
G1 X86.223 Y108.414 E2.28972
G1 X86.494 Y108.379 E2.29332 F1800.000
G1 X86.710 Y108.399 E2.29617
G1 X86.913 Y108.458 E2.29895
G1 X87.100 Y108.554 E2.30173
G1 X87.267 Y108.683 E2.30450
G1 X87.407 Y108.841 E2.30728
G1 X87.515 Y109.025 E2.31008
G1 X87.601 Y109.288 E2.31373
G1 X87.621 Y109.500 E2.31653
G1 X87.601 Y109.712 E2.31934
G1 X87.533 Y109.918 E2.32219
G1 X87.633 Y110.153 F7800.000
G1 X102.001 Y109.500 F7800.000
G1 X102.027 Y109.219 E2.32591 F1800.000
G1 X102.106 Y108.948 E2.32963
G1 X102.234 Y108.697 E2.33334
G1 X102.407 Y108.474 E2.33705
G1 X102.619 Y108.287 E2.34077
G1 X102.862 Y108.144 E2.34448
G1 X103.134 Y108.045 E2.34830
G1 X103.487 Y108.000 E2.35299 F1800.000
G1 X103.780 Y108.027 E2.35686
G1 X104.052 Y108.106 E2.36058
G1 X104.303 Y108.234 E2.36430
G1 X104.526 Y108.407 E2.36801
G1 X104.718 Y108.625 E2.37183
G1 X104.892 Y108.941 E2.37658
G1 X104.973 Y109.219 E2.38040
G1 X104.999 Y109.500 E2.38411
G1 X104.973 Y109.781 E2.38783
G1 X104.894 Y110.052 E2.39154
G1 X104.765 Y110.304 E2.39526
G1 X104.585 Y110.536 E2.39914
G1 X104.310 Y110.762 E2.40382
G1 X104.052 Y110.894 E2.40764
G1 X103.781 Y110.973 E2.41135
G1 X103.500 Y110.999 E2.41507
G1 X103.219 Y110.973 E2.41878
G1 X102.941 Y110.892 E2.42260
G1 X102.625 Y110.718 E2.42735
G1 X102.407 Y110.526 E2.43117
G1 X102.234 Y110.303 E2.43488
G1 X102.106 Y110.052 E2.43860
G1 X102.027 Y109.781 E2.44231
G1 X102.006 Y109.560 E2.44524
G1 X102.190 Y109.500 F7800.000
G1 X102.213 Y109.255 E2.44848 F1800.000
G1 X102.282 Y109.018 E2.45173
G1 X102.394 Y108.798 E2.45497
G1 X102.545 Y108.603 E2.45822
G1 X102.730 Y108.440 E2.46147
G1 X102.942 Y108.315 E2.46471
G1 X103.179 Y108.230 E2.46802
G1 X103.491 Y108.190 E2.47216 F1800.000
G1 X103.745 Y108.213 E2.47552
G1 X103.982 Y108.282 E2.47877
G1 X104.202 Y108.394 E2.48202
G1 X104.397 Y108.545 E2.48527
G1 X104.563 Y108.734 E2.48858
G1 X104.717 Y109.013 E2.49277
G1 X104.787 Y109.255 E2.49608
G1 X104.810 Y109.500 E2.49933
G1 X104.787 Y109.745 E2.50258
G1 X104.718 Y109.982 E2.50582
G1 X104.606 Y110.202 E2.50907
G1 X104.449 Y110.404 E2.51243
G1 X104.206 Y110.604 E2.51658
G1 X103.982 Y110.718 E2.51988
G1 X103.745 Y110.787 E2.52313
G1 X103.500 Y110.810 E2.52638
G1 X103.255 Y110.787 E2.52962
G1 X103.013 Y110.717 E2.53293
G1 X102.734 Y110.563 E2.53713
G1 X102.545 Y110.397 E2.54044
G1 X102.394 Y110.202 E2.54369
G1 X102.282 Y109.982 E2.54693
G1 X102.213 Y109.745 E2.55018
G1 X102.196 Y109.560 E2.55263
G1 X102.379 Y109.500 F7800.000
G1 X102.399 Y109.290 E2.55541 F1800.000
G1 X102.458 Y109.088 E2.55819
G1 X102.554 Y108.900 E2.56096
G1 X102.683 Y108.733 E2.56374
G1 X102.841 Y108.593 E2.56652
G1 X103.023 Y108.486 E2.56929
G1 X103.223 Y108.414 E2.57209
G1 X103.494 Y108.379 E2.57569 F1800.000
G1 X103.710 Y108.399 E2.57854
G1 X103.912 Y108.458 E2.58132
G1 X104.100 Y108.554 E2.58410
G1 X104.267 Y108.683 E2.58688
G1 X104.408 Y108.843 E2.58968
G1 X104.541 Y109.086 E2.59333
G1 X104.601 Y109.290 E2.59613
G1 X104.621 Y109.500 E2.59891
G1 X104.601 Y109.710 E2.60168
G1 X104.542 Y109.912 E2.60446
G1 X104.446 Y110.101 E2.60724
G1 X104.313 Y110.271 E2.61009
G1 X104.102 Y110.445 E2.61369
G1 X103.912 Y110.542 E2.61649
G1 X103.710 Y110.601 E2.61926
G1 X103.500 Y110.621 E2.62204
G1 X103.290 Y110.601 E2.62482
G1 X103.086 Y110.541 E2.62762
G1 X102.843 Y110.408 E2.63127
G1 X102.683 Y110.267 E2.63407
G1 X102.554 Y110.100 E2.63685
G1 X102.458 Y109.912 E2.63962
G1 X102.399 Y109.710 E2.64240
G1 X102.385 Y109.560 E2.64439
G1 X102.200 Y109.389 F7800.000
G1 X90.777 Y88.714 F7800.000
G1 X90.253 Y88.902 E2.65172 F1800.000
G1 X89.876 Y88.974 E2.65678
G1 X89.500 Y88.998 E2.66173
G1 X89.124 Y88.974 E2.66669
G1 X88.747 Y88.902 E2.67175
G1 X88.223 Y88.714 E2.67908
G1 X87.737 Y88.426 E2.68651
G1 X87.314 Y88.053 E2.69394
G1 X86.968 Y87.607 E2.70137
G1 X86.711 Y87.104 E2.70881
G1 X86.554 Y86.562 E2.71624
G1 X86.501 Y86.000 E2.72367
G1 X86.554 Y85.438 E2.73110
G1 X86.711 Y84.896 E2.73854
G1 X86.968 Y84.393 E2.74597
G1 X87.314 Y83.947 E2.75340
G1 X87.737 Y83.574 E2.76083
G1 X88.223 Y83.286 E2.76826
G1 X88.747 Y83.098 E2.77559
G1 X89.124 Y83.026 E2.78065
G1 X89.498 Y83.002 E2.78558 F1800.000
G1 X90.061 Y83.054 E2.79303
G1 X90.604 Y83.211 E2.80047
G1 X91.107 Y83.468 E2.80790
G1 X91.553 Y83.814 E2.81534
G1 X91.926 Y84.237 E2.82277
G1 X92.214 Y84.724 E2.83021
G1 X92.405 Y85.257 E2.83766
G1 X92.474 Y85.625 E2.84259
G1 X92.498 Y86.008 E2.84765
G1 X92.446 Y86.562 E2.85498
G1 X92.289 Y87.104 E2.86241
G1 X92.032 Y87.607 E2.86984
G1 X91.686 Y88.053 E2.87727
G1 X91.263 Y88.426 E2.88470
G1 X90.829 Y88.683 E2.89135
G1 X90.696 Y88.542 F7800.000
G1 X90.203 Y88.720 E2.89825 F1800.000
G1 X89.852 Y88.787 E2.90295
G1 X89.500 Y88.809 E2.90760
G1 X89.148 Y88.787 E2.91224
G1 X88.797 Y88.720 E2.91695
G1 X88.304 Y88.542 E2.92385
G1 X87.848 Y88.273 E2.93081
G1 X87.452 Y87.924 E2.93777
G1 X87.128 Y87.506 E2.94474
G1 X86.887 Y87.034 E2.95170
G1 X86.740 Y86.527 E2.95866
G1 X86.690 Y86.000 E2.96563
G1 X86.740 Y85.473 E2.97259
G1 X86.887 Y84.966 E2.97955
G1 X87.128 Y84.494 E2.98652
G1 X87.452 Y84.077 E2.99348
G1 X87.848 Y83.727 E3.00044
G1 X88.304 Y83.458 E3.00740
G1 X88.797 Y83.280 E3.01430
G1 X89.148 Y83.213 E3.01901
G1 X89.495 Y83.191 E3.02359 F1800.000
G1 X90.026 Y83.240 E3.03061
G1 X90.534 Y83.387 E3.03758
G1 X91.006 Y83.628 E3.04454
G1 X91.423 Y83.952 E3.05151
G1 X91.773 Y84.348 E3.05847
G1 X92.043 Y84.804 E3.06544
G1 X92.222 Y85.306 E3.07246
G1 X92.287 Y85.648 E3.07704
G1 X92.309 Y86.005 E3.08175
G1 X92.260 Y86.527 E3.08865
G1 X92.113 Y87.034 E3.09561
G1 X91.872 Y87.506 E3.10257
G1 X91.548 Y87.924 E3.10954
G1 X91.152 Y88.273 E3.11650
G1 X90.748 Y88.512 E3.12267
G1 X90.616 Y88.371 F7800.000
G1 X90.153 Y88.538 E3.12914 F1800.000
G1 X89.828 Y88.600 E3.13350
G1 X89.500 Y88.620 E3.13783
G1 X89.172 Y88.600 E3.14216
G1 X88.847 Y88.538 E3.14652
G1 X88.384 Y88.371 E3.15299
G1 X87.960 Y88.120 E3.15948
G1 X87.590 Y87.794 E3.16597
G1 X87.287 Y87.404 E3.17247
G1 X87.063 Y86.965 E3.17896
G1 X86.926 Y86.491 E3.18546
G1 X86.879 Y86.000 E3.19195
G1 X86.926 Y85.509 E3.19844
G1 X87.063 Y85.035 E3.20494
G1 X87.287 Y84.596 E3.21143
G1 X87.590 Y84.206 E3.21792
G1 X87.960 Y83.880 E3.22442
G1 X88.384 Y83.629 E3.23091
G1 X88.847 Y83.462 E3.23738
G1 X89.172 Y83.400 E3.24174
G1 X89.492 Y83.380 E3.24597 F1800.000
G1 X89.991 Y83.426 E3.25256
G1 X90.465 Y83.563 E3.25906
G1 X90.904 Y83.787 E3.26555
G1 X91.294 Y84.090 E3.27204
G1 X91.620 Y84.460 E3.27854
G1 X91.871 Y84.884 E3.28503
G1 X92.040 Y85.356 E3.29162
G1 X92.100 Y85.672 E3.29586
G1 X92.120 Y86.002 E3.30021
G1 X92.074 Y86.491 E3.30668
G1 X91.937 Y86.965 E3.31317
G1 X91.713 Y87.404 E3.31967
G1 X91.410 Y87.794 E3.32616
G1 X91.040 Y88.120 E3.33266
G1 X90.667 Y88.341 E3.33836
G1 X90.570 Y88.769 F7800.000
G1 E1.33836 F2400.00000
G92 E0
G1 X87.261 Y81.787 F7800.000
G1 E2.00000 F2400.00000
G1 X87.052 Y81.894 E2.00309 F1800.000
G1 X86.781 Y81.973 E2.00681
G1 X86.500 Y81.999 E2.01052
G1 X86.219 Y81.973 E2.01424
G1 X85.948 Y81.894 E2.01795
G1 X85.696 Y81.766 E2.02168
G1 X85.464 Y81.585 E2.02555
G1 X85.238 Y81.310 E2.03024
G1 X85.106 Y81.052 E2.03405
G1 X85.027 Y80.781 E2.03777
G1 X85.001 Y80.500 E2.04148
G1 X85.027 Y80.219 E2.04520
G1 X85.106 Y79.948 E2.04891
G1 X85.234 Y79.697 E2.05263
G1 X85.407 Y79.474 E2.05634
G1 X85.619 Y79.287 E2.06006
G1 X85.862 Y79.143 E2.06377
G1 X86.134 Y79.045 E2.06759
G1 X86.487 Y79.000 E2.07227 F1800.000
G1 X86.780 Y79.027 E2.07615
G1 X87.052 Y79.106 E2.07987
G1 X87.303 Y79.234 E2.08358
G1 X87.526 Y79.407 E2.08730
G1 X87.713 Y79.619 E2.09101
G1 X87.861 Y79.868 E2.09483
G1 X87.972 Y80.211 E2.09958
G1 X87.999 Y80.500 E2.10340
G1 X87.972 Y80.789 E2.10722
G1 X87.861 Y81.132 E2.11196
G1 X87.713 Y81.381 E2.11578
G1 X87.526 Y81.593 E2.11949
G1 X87.313 Y81.758 E2.12304
G1 X87.176 Y81.619 F7800.000
G1 X86.982 Y81.718 E2.12590 F1800.000
G1 X86.745 Y81.787 E2.12915
G1 X86.500 Y81.810 E2.13239
G1 X86.255 Y81.787 E2.13564
G1 X86.018 Y81.718 E2.13888
G1 X85.798 Y81.606 E2.14213
G1 X85.596 Y81.449 E2.14550
G1 X85.396 Y81.206 E2.14964
G1 X85.282 Y80.982 E2.15295
G1 X85.213 Y80.745 E2.15619
G1 X85.190 Y80.500 E2.15944
G1 X85.213 Y80.255 E2.16268
G1 X85.282 Y80.018 E2.16593
G1 X85.394 Y79.798 E2.16918
G1 X85.545 Y79.603 E2.17242
G1 X85.730 Y79.440 E2.17567
G1 X85.942 Y79.315 E2.17891
G1 X86.179 Y79.230 E2.18222
G1 X86.491 Y79.190 E2.18636 F1800.000
G1 X86.745 Y79.213 E2.18973
G1 X86.982 Y79.282 E2.19298
G1 X87.202 Y79.394 E2.19622
G1 X87.397 Y79.545 E2.19947
G1 X87.560 Y79.730 E2.20271
G1 X87.688 Y79.946 E2.20603
G1 X87.786 Y80.250 E2.21022
G1 X87.810 Y80.500 E2.21353
G1 X87.786 Y80.750 E2.21684
G1 X87.688 Y81.054 E2.22104
G1 X87.560 Y81.270 E2.22435
G1 X87.397 Y81.455 E2.22760
G1 X87.226 Y81.587 E2.23044
G1 X87.090 Y81.451 F7800.000
G1 X86.912 Y81.542 E2.23306 F1800.000
G1 X86.710 Y81.601 E2.23584
G1 X86.500 Y81.621 E2.23862
G1 X86.290 Y81.601 E2.24139
G1 X86.088 Y81.542 E2.24417
G1 X85.899 Y81.446 E2.24695
G1 X85.729 Y81.313 E2.24980
G1 X85.555 Y81.102 E2.25340
G1 X85.458 Y80.912 E2.25620
G1 X85.399 Y80.710 E2.25898
G1 X85.379 Y80.500 E2.26175
G1 X85.399 Y80.290 E2.26453
G1 X85.458 Y80.088 E2.26731
G1 X85.554 Y79.900 E2.27008
G1 X85.683 Y79.733 E2.27286
G1 X85.841 Y79.593 E2.27564
G1 X86.023 Y79.486 E2.27841
G1 X86.223 Y79.414 E2.28121
G1 X86.494 Y79.379 E2.28481 F1800.000
G1 X86.710 Y79.399 E2.28766
G1 X86.912 Y79.458 E2.29044
G1 X87.100 Y79.554 E2.29322
G1 X87.267 Y79.683 E2.29600
G1 X87.407 Y79.841 E2.29877
G1 X87.515 Y80.025 E2.30157
G1 X87.601 Y80.288 E2.30522
G1 X87.621 Y80.500 E2.30802
G1 X87.601 Y80.712 E2.31083
G1 X87.515 Y80.975 E2.31448
G1 X87.407 Y81.159 E2.31728
G1 X87.267 Y81.317 E2.32005
G1 X87.139 Y81.416 E2.32219
G1 X87.091 Y81.651 F7800.000
G1 X101.998 Y80.568 F7800.000
G1 X102.026 Y80.222 E2.32676 F1800.000
G1 X102.106 Y79.948 E2.33052
G1 X102.234 Y79.697 E2.33423
G1 X102.407 Y79.474 E2.33795
G1 X102.619 Y79.287 E2.34166
G1 X102.862 Y79.143 E2.34538
G1 X103.134 Y79.045 E2.34919
G1 X103.487 Y79.000 E2.35388 F1800.000
G1 X103.780 Y79.027 E2.35775
G1 X104.052 Y79.106 E2.36148
G1 X104.303 Y79.234 E2.36519
G1 X104.526 Y79.407 E2.36891
G1 X104.718 Y79.625 E2.37272
G1 X104.892 Y79.941 E2.37747
G1 X104.973 Y80.219 E2.38129
G1 X104.999 Y80.500 E2.38500
G1 X104.973 Y80.781 E2.38872
G1 X104.894 Y81.052 E2.39243
G1 X104.766 Y81.303 E2.39615
G1 X104.593 Y81.526 E2.39986
G1 X104.381 Y81.713 E2.40358
G1 X104.132 Y81.861 E2.40740
G1 X103.789 Y81.972 E2.41214
G1 X103.500 Y81.999 E2.41596
G1 X103.219 Y81.973 E2.41968
G1 X102.948 Y81.894 E2.42339
G1 X102.697 Y81.766 E2.42711
G1 X102.474 Y81.593 E2.43082
G1 X102.287 Y81.381 E2.43454
G1 X102.144 Y81.138 E2.43825
G1 X102.048 Y80.874 E2.44195
G1 X102.008 Y80.627 E2.44524
G1 X102.188 Y80.560 F7800.000
G1 X102.213 Y80.256 E2.44926 F1800.000
G1 X102.282 Y80.018 E2.45253
G1 X102.394 Y79.798 E2.45578
G1 X102.545 Y79.603 E2.45902
G1 X102.730 Y79.440 E2.46227
G1 X102.942 Y79.315 E2.46551
G1 X103.179 Y79.230 E2.46882
G1 X103.491 Y79.190 E2.47296 F1800.000
G1 X103.745 Y79.213 E2.47633
G1 X103.982 Y79.282 E2.47958
G1 X104.202 Y79.394 E2.48282
G1 X104.397 Y79.545 E2.48607
G1 X104.563 Y79.734 E2.48938
G1 X104.717 Y80.013 E2.49358
G1 X104.787 Y80.255 E2.49689
G1 X104.810 Y80.500 E2.50013
G1 X104.787 Y80.745 E2.50338
G1 X104.718 Y80.982 E2.50662
G1 X104.606 Y81.202 E2.50987
G1 X104.455 Y81.397 E2.51311
G1 X104.270 Y81.560 E2.51636
G1 X104.054 Y81.688 E2.51967
G1 X103.750 Y81.786 E2.52387
G1 X103.500 Y81.810 E2.52718
G1 X103.255 Y81.787 E2.53043
G1 X103.018 Y81.718 E2.53367
